; generated by Slic3r 1.2.0 on 2014-11-10 at 22:08:12

; external perimeters extrusion width = 0.40mm
; perimeters extrusion width = 0.67mm
; infill extrusion width = 0.67mm
; solid infill extrusion width = 0.67mm
; top infill extrusion width = 0.67mm

G21 ; set units to millimeters
M190 S70 ; wait for bed temperature to be reached
M106 ; fan on
M109 S185 ; heat extruder
M116 ; wait for all temperatures 

G1 Z10 F5000 ; lift nozzle just to clear obstacles
G28 X0 Y0 F5000; home X and Y
G28 Z0; home Z to slightly below bed height
G1 Z1.20 F5000; raise to proper z0 height
G92 Z0; set Z offset

G1 Z20 F5000 ; lift nozzle for purge

; purge the nozzle
G91
G1 E10 F150
G90

G1 X10 Y10 F5000 ; clear the blob
G90 ; use absolute coordinates
G92 E0
M82 ; use absolute distances for extrusion
M106 S255
G1 F1800.000 E-1.00000
G92 E0
G1 Z0.350 F7800.000
G1 X84.632 Y72.677 F7800.000
G1 E1.00000 F1800.000
G1 X86.385 Y71.198 E1.07863 F1080.000
G1 X88.537 Y70.405 E1.15726
G1 X89.716 Y70.299 E1.19787
G1 X110.284 Y70.299 E1.90299
G1 X112.542 Y70.696 E1.98162
G1 X114.531 Y71.839 E2.06025 F1080.000
G1 X116.010 Y73.592 E2.13888
G1 X116.803 Y75.744 E2.21751
G1 X116.908 Y76.924 E2.25812
G1 X116.908 Y123.076 E3.84041
G1 X116.512 Y125.335 E3.91904
G1 X115.368 Y127.323 E3.99767
G1 X113.615 Y128.802 E4.07629
G1 X111.463 Y129.595 E4.15492
G1 X110.284 Y129.701 E4.19553
G1 X89.716 Y129.701 E4.90066
G1 X87.458 Y129.304 E4.97929
G1 X85.469 Y128.161 E5.05792
G1 X83.990 Y126.408 E5.13654
G1 X83.197 Y124.256 E5.21517
G1 X83.092 Y123.076 E5.25578
G1 X83.092 Y76.924 E6.83807
G1 X83.488 Y74.665 E6.91670
G1 X84.602 Y72.729 E6.99327
G1 F1800.000 E5.99327
G92 E0
G1 X91.316 Y78.524 F7800.000
G1 E1.00000 F1800.000
G1 X108.684 Y78.524 E1.59543 F540.000
G1 X108.684 Y121.476 E3.06803
G1 X91.316 Y121.476 E3.66346
G1 X91.316 Y78.584 E5.13400
G1 X90.691 Y77.899 F7800.000
G1 X109.309 Y77.899 E5.77228 F540.000
G1 X109.309 Y122.101 E7.28772
G1 X90.691 Y122.101 E7.92600
G1 X90.691 Y77.959 E9.43939
G1 X90.066 Y77.274 F7800.000
G1 X109.934 Y77.274 E10.12051 F378.000
G1 X109.934 Y122.726 E11.67880
G1 X90.066 Y122.726 E12.35993
G1 X90.066 Y77.334 E13.91617
G1 X90.413 Y77.474 F7800.000
G1 X108.211 Y78.957 F7800.000
G1 X108.251 Y78.997 E13.91810 F1080.000
G1 X108.251 Y79.883 E13.94850
G1 X107.324 Y78.957 E13.99342
G1 X106.438 Y78.957 E14.02381
G1 X108.251 Y80.770 E14.11171
G1 X108.251 Y81.656 E14.14210
G1 X105.551 Y78.957 E14.27299
G1 X104.665 Y78.957 E14.30338
G1 X108.251 Y82.543 E14.47725
G1 X108.251 Y83.429 E14.50764
G1 X103.778 Y78.957 E14.72449
G1 X102.892 Y78.957 E14.75488
G1 X108.251 Y84.316 E15.01471
G1 X108.251 Y85.202 E15.04510
G1 X102.005 Y78.957 E15.34791
G1 X101.119 Y78.957 E15.37830
G1 X108.251 Y86.089 E15.72409
G1 X108.251 Y86.975 E15.75448
G1 X100.232 Y78.957 E16.14326
G1 X99.346 Y78.957 E16.17365
G1 X108.251 Y87.862 E16.60540
G1 X108.251 Y88.748 E16.63579
G1 X98.459 Y78.957 E17.11053
G1 X97.573 Y78.957 E17.14092
G1 X108.251 Y89.634 E17.65864
G1 X108.251 Y90.521 E17.68903
G1 X96.686 Y78.957 E18.24973
G1 X95.800 Y78.957 E18.28012
G1 X108.251 Y91.407 E18.88380
G1 X108.251 Y92.294 E18.91419
G1 X94.913 Y78.957 E19.56085
G1 X94.027 Y78.957 E19.59125
G1 X108.251 Y93.180 E20.28089
G1 X108.251 Y94.067 E20.31128
G1 X93.140 Y78.957 E21.04390
G1 X92.254 Y78.957 E21.07430
G1 X108.251 Y94.953 E21.84990
G1 X108.251 Y95.840 E21.88029
G1 X91.749 Y79.338 E22.68037
G1 X91.749 Y80.225 E22.71076
G1 X108.251 Y96.726 E23.51084
G1 X108.251 Y97.613 E23.54123
G1 X91.749 Y81.111 E24.34131
G1 X91.749 Y81.998 E24.37171
G1 X108.251 Y98.499 E25.17178
G1 X108.251 Y99.386 E25.20218
G1 X91.749 Y82.884 E26.00225
G1 X91.749 Y83.771 E26.03265
G1 X108.251 Y100.272 E26.83272
G1 X108.251 Y101.159 E26.86312
G1 X91.749 Y84.657 E27.66320
G1 X91.749 Y85.544 E27.69359
G1 X108.251 Y102.045 E28.49367
G1 X108.251 Y102.932 E28.52406
G1 X91.749 Y86.430 E29.32414
G1 X91.749 Y87.317 E29.35453
G1 X108.251 Y103.818 E30.15461
G1 X108.251 Y104.705 E30.18500
G1 X91.749 Y88.203 E30.98508
G1 X91.749 Y89.090 E31.01547
G1 X108.251 Y105.591 E31.81555
G1 X108.251 Y106.478 E31.84594
G1 X91.749 Y89.976 E32.64602
G1 X91.749 Y90.863 E32.67641
G1 X108.251 Y107.364 E33.47649
G1 X108.251 Y108.251 E33.50688
G1 X91.749 Y91.749 E34.30696
G1 X91.749 Y92.636 E34.33735
G1 X108.251 Y109.137 E35.13743
G1 X108.251 Y110.024 E35.16782
G1 X91.749 Y93.522 E35.96790
G1 X91.749 Y94.409 E35.99829
G1 X108.251 Y110.910 E36.79837
G1 X108.251 Y111.797 E36.82876
G1 X91.749 Y95.295 E37.62884
G1 X91.749 Y96.182 E37.65923
G1 X108.251 Y112.683 E38.45931
G1 X108.251 Y113.570 E38.48971
G1 X91.749 Y97.068 E39.28978
G1 X91.749 Y97.955 E39.32018
G1 X108.251 Y114.456 E40.12025
G1 X108.251 Y115.343 E40.15065
G1 X91.749 Y98.841 E40.95072
G1 X91.749 Y99.728 E40.98112
G1 X108.251 Y116.229 E41.78120
G1 X108.251 Y117.116 E41.81159
G1 X91.749 Y100.614 E42.61167
G1 X91.749 Y101.501 E42.64206
G1 X108.251 Y118.002 E43.44214
G1 X108.251 Y118.889 E43.47253
G1 X91.749 Y102.387 E44.27261
G1 X91.749 Y103.274 E44.30300
G1 X108.251 Y119.775 E45.10308
G1 X108.251 Y120.662 E45.13347
G1 X91.749 Y104.160 E45.93355
G1 X91.749 Y105.047 E45.96394
G1 X107.746 Y121.043 E46.73955
G1 X106.860 Y121.043 E46.76994
G1 X91.749 Y105.933 E47.50256
G1 X91.749 Y106.820 E47.53295
G1 X105.973 Y121.043 E48.22260
G1 X105.087 Y121.043 E48.25299
G1 X91.749 Y107.706 E48.89965
G1 X91.749 Y108.593 E48.93004
G1 X104.200 Y121.043 E49.53372
G1 X103.314 Y121.043 E49.56411
G1 X91.749 Y109.479 E50.12481
G1 X91.749 Y110.366 E50.15520
G1 X102.427 Y121.043 E50.67292
G1 X101.541 Y121.043 E50.70331
G1 X91.749 Y111.252 E51.17805
G1 X91.749 Y112.138 E51.20844
G1 X100.654 Y121.043 E51.64019
G1 X99.768 Y121.043 E51.67059
G1 X91.749 Y113.025 E52.05936
G1 X91.749 Y113.911 E52.08975
G1 X98.881 Y121.043 E52.43554
G1 X97.995 Y121.043 E52.46593
G1 X91.749 Y114.798 E52.76874
G1 X91.749 Y115.684 E52.79914
G1 X97.108 Y121.043 E53.05896
G1 X96.222 Y121.043 E53.08936
G1 X91.749 Y116.571 E53.30620
G1 X91.749 Y117.457 E53.33659
G1 X95.335 Y121.043 E53.51046
G1 X94.449 Y121.043 E53.54085
G1 X91.749 Y118.344 E53.67174
G1 X91.749 Y119.230 E53.70213
G1 X93.562 Y121.043 E53.79003
G1 X92.676 Y121.043 E53.82042
G1 X91.749 Y120.117 E53.86534
G1 X91.749 Y121.003 E53.89574
G1 X91.789 Y121.043 E53.89768
G1 F1800.000 E52.89768
G92 E0
G1 Z0.550 F7800.000
G1 X91.037 Y121.755 F7800.000
G1 E1.00000 F1800.000
G1 X91.037 Y78.245 E1.85708 F1800.000
G1 X108.963 Y78.245 E2.21018
G1 X108.963 Y121.755 E3.06726
G1 X91.097 Y121.755 E3.41918
G1 X90.409 Y122.383 F7800.000
G1 X90.409 Y77.616 E4.30101 F1800.000
G1 X109.591 Y77.616 E4.67887
G1 X109.591 Y122.383 E5.56070
G1 X90.469 Y122.383 E5.93737
G1 X89.916 Y122.876 F7800.000
G1 X89.916 Y77.124 E6.44956 F1260.000
G1 X110.084 Y77.124 E6.67533
G1 X110.084 Y122.876 E7.18751
G1 X89.976 Y122.876 E7.41261
G1 X90.116 Y122.530 F7800.000
G1 F1800.000 E6.41261
G92 E0
G1 X108.527 Y121.280 F7800.000
G1 E1.00000 F1800.000
G1 X108.487 Y121.320 E1.00111 F3600.000
G1 X107.597 Y121.320 E1.01864
G1 X108.527 Y120.390 E1.04454
G1 X108.527 Y119.500 E1.06207
G1 X106.708 Y121.320 E1.11276
G1 X105.818 Y121.320 E1.13028
G1 X108.527 Y118.610 E1.20576
G1 X108.527 Y117.721 E1.22328
G1 X104.928 Y121.320 E1.32354
G1 X104.038 Y121.320 E1.34107
G1 X108.527 Y116.831 E1.46612
G1 X108.527 Y115.941 E1.48364
G1 X103.149 Y121.320 E1.63348
G1 X102.259 Y121.320 E1.65100
G1 X108.527 Y115.051 E1.82562
G1 X108.527 Y114.162 E1.84315
G1 X101.369 Y121.320 E2.04256
G1 X100.479 Y121.320 E2.06008
G1 X108.527 Y113.272 E2.28428
G1 X108.527 Y112.382 E2.30180
G1 X99.590 Y121.320 E2.55078
G1 X98.700 Y121.320 E2.56831
G1 X108.527 Y111.492 E2.84207
G1 X108.527 Y110.603 E2.85960
G1 X97.810 Y121.320 E3.15815
G1 X96.920 Y121.320 E3.17568
G1 X108.527 Y109.713 E3.49902
G1 X108.527 Y108.823 E3.51654
G1 X96.031 Y121.320 E3.86467
G1 X95.141 Y121.320 E3.88220
G1 X108.527 Y107.933 E4.25511
G1 X108.527 Y107.044 E4.27263
G1 X94.251 Y121.320 E4.67033
G1 X93.361 Y121.320 E4.68786
G1 X108.527 Y106.154 E5.11034
G1 X108.527 Y105.264 E5.12787
G1 X92.472 Y121.320 E5.57514
G1 X91.582 Y121.320 E5.59267
G1 X108.527 Y104.374 E6.06473
G1 X108.527 Y103.485 E6.08225
G1 X91.473 Y120.539 E6.55734
G1 X91.473 Y119.649 E6.57487
G1 X108.527 Y102.595 E7.04996
G1 X108.527 Y101.705 E7.06749
G1 X91.473 Y118.759 E7.54257
G1 X91.473 Y117.869 E7.56010
G1 X108.527 Y100.815 E8.03519
G1 X108.527 Y99.926 E8.05272
G1 X91.473 Y116.980 E8.52781
G1 X91.473 Y116.090 E8.54533
G1 X108.527 Y99.036 E9.02042
G1 X108.527 Y98.146 E9.03795
G1 X91.473 Y115.200 E9.51304
G1 X91.473 Y114.310 E9.53057
G1 X108.527 Y97.256 E10.00565
G1 X108.527 Y96.367 E10.02318
G1 X91.473 Y113.421 E10.49827
G1 X91.473 Y112.531 E10.51580
G1 X108.527 Y95.477 E10.99089
G1 X108.527 Y94.587 E11.00841
G1 X91.473 Y111.641 E11.48350
G1 X91.473 Y110.751 E11.50103
G1 X108.527 Y93.697 E11.97612
G1 X108.527 Y92.808 E11.99365
G1 X91.473 Y109.862 E12.46873
G1 X91.473 Y108.972 E12.48626
G1 X108.527 Y91.918 E12.96135
G1 X108.527 Y91.028 E12.97888
G1 X91.473 Y108.082 E13.45397
G1 X91.473 Y107.192 E13.47149
G1 X108.527 Y90.138 E13.94658
G1 X108.527 Y89.249 E13.96411
G1 X91.473 Y106.303 E14.43920
G1 X91.473 Y105.413 E14.45673
G1 X108.527 Y88.359 E14.93181
G1 X108.527 Y87.469 E14.94934
G1 X91.473 Y104.523 E15.42443
G1 X91.473 Y103.633 E15.44196
G1 X108.527 Y86.579 E15.91705
G1 X108.527 Y85.690 E15.93457
G1 X91.473 Y102.744 E16.40966
G1 X91.473 Y101.854 E16.42719
G1 X108.527 Y84.800 E16.90228
G1 X108.527 Y83.910 E16.91981
G1 X91.473 Y100.964 E17.39489
G1 X91.473 Y100.074 E17.41242
G1 X108.527 Y83.020 E17.88751
G1 X108.527 Y82.131 E17.90504
G1 X91.473 Y99.185 E18.38013
G1 X91.473 Y98.295 E18.39765
G1 X108.527 Y81.241 E18.87274
G1 X108.527 Y80.351 E18.89027
G1 X91.473 Y97.405 E19.36536
G1 X91.473 Y96.515 E19.38289
G1 X108.527 Y79.461 E19.85797
G1 X108.418 Y78.680 E19.87351
G1 X91.473 Y95.626 E20.34556
G1 X91.473 Y94.736 E20.36309
G1 X107.528 Y78.680 E20.81036
G1 X106.639 Y78.680 E20.82789
G1 X91.473 Y93.846 E21.25037
G1 X91.473 Y92.956 E21.26790
G1 X105.749 Y78.680 E21.66560
G1 X104.859 Y78.680 E21.68312
G1 X91.473 Y92.067 E22.05604
G1 X91.473 Y91.177 E22.07356
G1 X103.969 Y78.680 E22.42169
G1 X103.080 Y78.680 E22.43922
G1 X91.473 Y90.287 E22.76255
G1 X91.473 Y89.397 E22.78008
G1 X102.190 Y78.680 E23.07863
G1 X101.300 Y78.680 E23.09616
G1 X91.473 Y88.508 E23.36993
G1 X91.473 Y87.618 E23.38745
G1 X100.410 Y78.680 E23.63643
G1 X99.521 Y78.680 E23.65396
G1 X91.473 Y86.728 E23.87815
G1 X91.473 Y85.838 E23.89568
G1 X98.631 Y78.680 E24.09508
G1 X97.741 Y78.680 E24.11261
G1 X91.473 Y84.949 E24.28723
G1 X91.473 Y84.059 E24.30476
G1 X96.851 Y78.680 E24.45459
G1 X95.962 Y78.680 E24.47212
G1 X91.473 Y83.169 E24.59716
G1 X91.473 Y82.279 E24.61469
G1 X95.072 Y78.680 E24.71495
G1 X94.182 Y78.680 E24.73248
G1 X91.473 Y81.390 E24.80795
G1 X91.473 Y80.500 E24.82548
G1 X93.292 Y78.680 E24.87616
G1 X92.403 Y78.680 E24.89369
G1 X91.473 Y79.610 E24.91959
G1 X91.473 Y78.720 E24.93712
G1 X91.513 Y78.680 E24.93823
G1 F1800.000 E23.93823
G92 E0
G1 Z0.750 F7800.000
G1 X91.743 Y108.834 F7800.000
G1 E1.00000 F1800.000
G1 X91.743 Y116.477 E1.15055 F1800.000
G1 X96.743 Y116.477 E1.24906
G1 X96.743 Y121.755 E1.35302
G1 X91.037 Y121.755 E1.46542
G1 X91.037 Y78.245 E2.32250
G1 X96.743 Y78.245 E2.43490
G1 X96.743 Y108.834 E3.03746
G1 X91.803 Y108.834 E3.13479
G1 X92.371 Y109.463 F7800.000
G1 X92.371 Y115.849 E3.26058 F1800.000
G1 X97.372 Y115.849 E3.35909
G1 X97.372 Y122.383 E3.48781
G1 X90.409 Y122.383 E3.62496
G1 X90.409 Y77.616 E4.50679
G1 X97.372 Y77.616 E4.64394
G1 X97.372 Y109.463 E5.27126
G1 X92.431 Y109.463 E5.36859
G1 X92.864 Y109.955 F7800.000
G1 X92.864 Y115.356 E5.42905 F1260.000
G1 X97.864 Y115.356 E5.48503
G1 X97.864 Y122.876 E5.56921
G1 X89.916 Y122.876 E5.65819
G1 X89.916 Y77.124 E6.17038
G1 X97.864 Y77.124 E6.25935
G1 X97.864 Y109.955 E6.62689
G1 X92.924 Y109.955 E6.68220
G1 X92.464 Y109.955 F7800.000
G1 X91.513 Y108.399 F7800.000
G1 X91.473 Y108.359 E6.68332 F3600.000
G1 X91.473 Y107.452 E6.70119
G1 X92.420 Y108.399 E6.72757
G1 X93.327 Y108.399 E6.74544
G1 X91.473 Y106.545 E6.79710
G1 X91.473 Y105.637 E6.81497
G1 X94.235 Y108.399 E6.89191
G1 X95.142 Y108.399 E6.90978
G1 X91.473 Y104.730 E7.01198
G1 X91.473 Y103.823 E7.02985
G1 X96.049 Y108.399 E7.15733
G1 X96.308 Y107.751 E7.17108
G1 X91.473 Y102.916 E7.30576
G1 X91.473 Y102.009 E7.32363
G1 X96.308 Y106.843 E7.45832
G1 X96.308 Y105.936 E7.47619
G1 X91.473 Y101.101 E7.61088
G1 X91.473 Y100.194 E7.62875
G1 X96.308 Y105.029 E7.76343
G1 X96.308 Y104.122 E7.78130
G1 X91.473 Y99.287 E7.91599
G1 X91.473 Y98.380 E7.93386
G1 X96.308 Y103.215 E8.06855
G1 X96.308 Y102.307 E8.08642
G1 X91.473 Y97.473 E8.22110
G1 X91.473 Y96.565 E8.23897
G1 X96.308 Y101.400 E8.37366
G1 X96.308 Y100.493 E8.39153
G1 X91.473 Y95.658 E8.52621
G1 X91.473 Y94.751 E8.54408
G1 X96.308 Y99.586 E8.67877
G1 X96.308 Y98.679 E8.69664
G1 X91.473 Y93.844 E8.83133
G1 X91.473 Y92.937 E8.84920
G1 X96.308 Y97.771 E8.98388
G1 X96.308 Y96.864 E9.00175
G1 X91.473 Y92.029 E9.13644
G1 X91.473 Y91.122 E9.15431
G1 X96.308 Y95.957 E9.28900
G1 X96.308 Y95.050 E9.30687
G1 X91.473 Y90.215 E9.44155
G1 X91.473 Y89.308 E9.45942
G1 X96.308 Y94.143 E9.59411
G1 X96.308 Y93.235 E9.61198
G1 X91.473 Y88.401 E9.74666
G1 X91.473 Y87.493 E9.76453
G1 X96.308 Y92.328 E9.89922
G1 X96.308 Y91.421 E9.91709
G1 X91.473 Y86.586 E10.05178
G1 X91.473 Y85.679 E10.06965
G1 X96.308 Y90.514 E10.20433
G1 X96.308 Y89.607 E10.22220
G1 X91.473 Y84.772 E10.35689
G1 X91.473 Y83.865 E10.37476
G1 X96.308 Y88.699 E10.50945
G1 X96.308 Y87.792 E10.52732
G1 X91.473 Y82.957 E10.66200
G1 X91.473 Y82.050 E10.67987
G1 X96.308 Y86.885 E10.81456
G1 X96.308 Y85.978 E10.83243
G1 X91.473 Y81.143 E10.96711
G1 X91.473 Y80.236 E10.98498
G1 X96.308 Y85.071 E11.11967
G1 X96.308 Y84.163 E11.13754
G1 X91.473 Y79.329 E11.27223
G1 X91.732 Y78.680 E11.28598
G1 X96.308 Y83.256 E11.41345
G1 X96.308 Y82.349 E11.43133
G1 X92.639 Y78.680 E11.53353
G1 X93.546 Y78.680 E11.55140
G1 X96.308 Y81.442 E11.62833
G1 X96.308 Y80.535 E11.64620
G1 X94.453 Y78.680 E11.69786
G1 X95.361 Y78.680 E11.71573
G1 X96.308 Y79.628 E11.74212
G1 X96.308 Y78.720 E11.75999
G1 X96.268 Y78.680 E11.76110
G1 F1800.000 E10.76110
G92 E0
G1 X96.268 Y116.913 F7800.000
G1 E1.00000 F1800.000
G1 X96.308 Y116.953 E1.00111 F3600.000
G1 X96.308 Y117.869 E1.01916
G1 X95.352 Y116.913 E1.04580
G1 X94.435 Y116.913 E1.06385
G1 X96.308 Y118.785 E1.11600
G1 X96.308 Y119.701 E1.13405
G1 X93.519 Y116.913 E1.21173
G1 X92.603 Y116.913 E1.22978
G1 X96.308 Y120.617 E1.33298
G1 X96.094 Y121.320 E1.34745
G1 X91.687 Y116.913 E1.47021
G1 X91.473 Y117.615 E1.48467
G1 X95.178 Y121.320 E1.58788
G1 X94.261 Y121.320 E1.60593
G1 X91.473 Y118.531 E1.68361
G1 X91.473 Y119.447 E1.70165
G1 X93.345 Y121.320 E1.75381
G1 X92.429 Y121.320 E1.77186
G1 X91.473 Y120.363 E1.79850
G1 X91.473 Y121.280 E1.81654
G1 X91.513 Y121.320 E1.81766
G1 F1800.000 E0.81766
G92 E0
G1 X108.539 Y88.284 F7800.000
G1 E1.00000 F1800.000
G1 X108.000 Y87.187 E1.02408 F1800.000
G1 X101.881 Y81.069 E1.19454
G1 X101.881 Y78.245 E1.25016
G1 X108.963 Y78.245 E1.38966
G1 X108.963 Y121.755 E2.24674
G1 X101.881 Y121.755 E2.38624
G1 X101.881 Y94.943 E2.91440
G1 X108.497 Y88.327 E3.09870
G1 X107.777 Y88.158 F7800.000
G1 X107.482 Y87.558 E3.11187 F1800.000
G1 X101.253 Y81.329 E3.28540
G1 X101.253 Y77.616 E3.35853
G1 X109.591 Y77.616 E3.52278
G1 X109.591 Y122.383 E4.40462
G1 X101.253 Y122.383 E4.56887
G1 X101.253 Y94.682 E5.11453
G1 X107.734 Y88.201 E5.29510
G1 X107.179 Y88.059 F7800.000
G1 X107.076 Y87.849 E5.29772 F1260.000
G1 X100.760 Y81.533 E5.39771
G1 X100.760 Y77.124 E5.44707
G1 X110.084 Y77.124 E5.55145
G1 X110.084 Y122.876 E6.06364
G1 X100.760 Y122.876 E6.16801
G1 X100.760 Y94.478 E6.48592
G1 X107.137 Y88.101 E6.58688
G1 X107.377 Y87.933 F7800.000
G1 X108.057 Y89.411 F7800.000
G1 X108.507 Y89.531 E6.59606 F3600.000
G1 X108.507 Y90.182 E6.60887
G1 X107.544 Y89.924 E6.62851
G1 X106.064 Y91.403 E6.66973
G1 X106.274 Y92.185 E6.68568
G1 X106.699 Y92.299 E6.69434
G1 X106.186 Y92.812 E6.70863
G1 X106.111 Y92.792 E6.71015
G1 X105.342 Y93.562 E6.73159
G1 X104.209 Y93.258 E6.75468
G1 X104.903 Y94.095 E6.77609
