; generated by Slic3r 1.2.0 on 2014-11-11 at 21:50:24

; external perimeters extrusion width = 0.40mm
; perimeters extrusion width = 0.67mm
; infill extrusion width = 0.67mm
; solid infill extrusion width = 0.67mm
; top infill extrusion width = 0.67mm

G21 ; set units to millimeters
M190 S70 ; wait for bed temperature to be reached
M106 ; fan on
M109 S185 ; heat extruder
M116 ; wait for all temperatures 

G1 Z10 F5000 ; lift nozzle just to clear obstacles
G28 X0 Y0 F5000; home X and Y
G28 Z0; home Z to slightly below bed height
G1 Z1.20 F5000; raise to proper z0 height
G92 Z0; set Z offset

G1 Z20 F5000 ; lift nozzle for purge

; purge the nozzle
G91
G1 E10 F150
G90

G1 X10 Y10 F5000 ; clear the blob
G90 ; use absolute coordinates
G92 E0
M82 ; use absolute distances for extrusion
M106 S255
G1 F1800.000 E-1.00000
G92 E0
G1 Z0.350 F7800.000
G1 X63.656 Y52.655 F7800.000
G1 E1.00000 F1800.000
G1 X64.543 Y51.727 E1.04400 F1080.000
G1 X65.860 Y50.583 E1.10382
G1 X66.819 Y49.919 E1.14378
G1 X68.324 Y49.047 E1.20343
G1 X69.434 Y48.561 E1.24496
G1 X70.168 Y48.281 E1.27191
G1 X71.077 Y48.002 E1.30450
G1 X72.256 Y47.743 E1.34589
G1 X73.967 Y47.519 E1.40503
G1 X74.992 Y47.492 E1.44021
G1 X125.188 Y47.495 E3.16111
G1 X125.991 Y47.518 E3.18866 F1080.000
G1 X126.937 Y47.608 E3.22124
G1 X128.121 Y47.818 E3.26247
G1 X129.798 Y48.268 E3.32200
G1 X130.930 Y48.712 E3.36368
G1 X131.644 Y49.033 E3.39053
G1 X132.481 Y49.479 E3.42304
G1 X133.468 Y50.110 E3.46319
G1 X134.109 Y50.562 E3.49009
G1 X134.850 Y51.160 E3.52272
G1 X135.776 Y52.046 E3.56667
G1 X136.920 Y53.363 E3.62648
G1 X137.583 Y54.321 E3.66640
G1 X138.456 Y55.828 E3.72614
G1 X138.942 Y56.935 E3.76758
G1 X139.222 Y57.670 E3.79454
G1 X139.501 Y58.582 E3.82724
G1 X139.760 Y59.764 E3.86874
G1 X139.889 Y60.530 E3.89535
G1 X139.984 Y61.476 E3.92794
G1 X140.011 Y62.504 E3.96321
G1 X140.008 Y122.692 E6.02669
G1 X139.894 Y124.443 E6.08686
G1 X139.686 Y125.609 E6.12746
G1 X139.239 Y127.285 E6.18694
G1 X138.786 Y128.446 E6.22967
G1 X138.013 Y129.997 E6.28907
G1 X137.392 Y130.964 E6.32848
G1 X136.343 Y132.345 E6.38792
G1 X135.458 Y133.270 E6.43181
G1 X134.140 Y134.415 E6.49165
G1 X133.149 Y135.099 E6.53296
G1 X131.678 Y135.950 E6.59121
G1 X130.566 Y136.438 E6.63283
G1 X129.767 Y136.742 E6.66215
G1 X88.917 Y151.998 E8.15712
G1 X87.732 Y152.258 E8.19872
G1 X86.023 Y152.481 E8.25783
G1 X84.994 Y152.508 E8.29312
G1 X73.600 Y152.446 E8.68375
G1 X71.844 Y152.173 E8.74467
G1 X70.202 Y151.732 E8.80297
G1 X69.071 Y151.289 E8.84461
G1 X67.519 Y150.521 E8.90398
G1 X66.532 Y149.890 E8.94413
G1 X65.151 Y148.840 E9.00361
G1 X64.224 Y147.954 E9.04757
G1 X63.080 Y146.637 E9.10738
G1 X62.427 Y145.695 E9.14669
G1 X61.551 Y144.191 E9.20636
G1 X61.054 Y143.062 E9.24865
G1 X60.497 Y141.414 E9.30827
G1 X60.235 Y140.207 E9.35064
G1 X60.016 Y138.530 E9.40862
G1 X59.989 Y137.505 E9.44377
G1 X59.992 Y62.316 E12.02155
G1 X60.015 Y61.512 E12.04911
G1 X60.105 Y60.565 E12.08174
G1 X60.316 Y59.382 E12.12293
G1 X60.765 Y57.704 E12.18248
G1 X61.045 Y56.970 E12.20942
G1 X61.530 Y55.859 E12.25099
G1 X61.976 Y55.022 E12.28350
G1 X62.608 Y54.033 E12.32372
G1 X63.060 Y53.392 E12.35062
G1 X63.618 Y52.701 E12.38107
G1 F1800.000 E11.38107
G92 E0
G1 X76.634 Y71.653 F7800.000
G1 E1.00000 F1800.000
G1 X73.393 Y68.424 E1.15685 F540.000
G1 X73.393 Y60.904 E1.41466
G1 X82.624 Y60.904 E1.73117
G1 X85.004 Y63.274 E1.84630
G1 X87.374 Y60.904 E1.96120
G1 X90.606 Y60.904 E2.07202
G1 X90.941 Y61.238 E2.08822
G1 X91.203 Y61.061 E2.09906
G1 X92.358 Y60.828 E2.13945
G1 X93.513 Y61.061 E2.17983
G1 X94.465 Y61.703 E2.21920
G1 X95.192 Y62.783 E2.26386
G1 X95.192 Y67.657 E2.43095
G1 X94.469 Y68.738 E2.47555
G1 X93.518 Y69.386 E2.51500
G1 X92.358 Y69.623 E2.55559
G1 X91.594 Y69.467 E2.58232
G1 X91.594 Y73.433 E2.71829
G1 X89.381 Y75.645 E2.82557
G1 X91.594 Y77.858 E2.93285
G1 X91.594 Y81.420 E3.05500
G1 X89.345 Y83.660 E3.16383
G1 X91.594 Y85.910 E3.27290
G1 X91.594 Y89.402 E3.39264
G1 X90.091 Y90.899 E3.46538
G1 X108.397 Y90.899 E4.09300
G1 X108.397 Y62.726 E5.05891
G1 X108.946 Y63.274 E5.08551
G1 X111.325 Y60.904 E5.20065
G1 X114.558 Y60.904 E5.31147
G1 X116.928 Y63.274 E5.42637
G1 X119.307 Y60.904 E5.54150
G1 X122.539 Y60.904 E5.65231
G1 X126.598 Y64.964 E5.84912
G1 X126.598 Y70.359 E6.03411
G1 X125.293 Y71.654 E6.09715
G1 X126.598 Y72.949 E6.16019
G1 X126.598 Y78.341 E6.34503
G1 X125.293 Y79.635 E6.40805
G1 X126.598 Y80.932 E6.47111
G1 X126.598 Y86.322 E6.65593
G1 X125.293 Y87.617 E6.71898
G1 X126.598 Y88.913 E6.78203
G1 X126.598 Y94.309 E6.96702
G1 X122.813 Y98.094 E7.15056
G1 X119.820 Y98.094 E7.25319
G1 X120.566 Y98.837 E7.28930
G1 X120.566 Y101.906 E7.39451
G1 X123.628 Y101.906 E7.49950
G1 X126.598 Y104.876 E7.64350
G1 X126.598 Y110.272 E7.82849
G1 X125.300 Y111.569 E7.89142
G1 X126.598 Y112.857 E7.95412
G1 X126.598 Y118.252 E8.13906
G1 X125.309 Y119.546 E8.20168
G1 X126.598 Y120.976 E8.26769
G1 X126.598 Y124.102 E8.37489
G1 X111.998 Y124.102 E8.87546
G1 X112.511 Y123.587 E8.90039
G1 X108.913 Y119.975 E9.07517
G1 X108.397 Y120.491 E9.10021
G1 X108.397 Y109.101 E9.49072
G1 X90.835 Y109.101 E10.09284
G1 X91.594 Y109.857 E10.12958
G1 X91.594 Y114.101 E10.27510
G1 X87.068 Y114.101 E10.43028
G1 X86.593 Y113.625 E10.45333
G1 X86.593 Y137.554 E11.27372
G1 X84.969 Y135.937 E11.35230
G1 X81.802 Y139.105 E11.50587
G1 X80.141 Y139.105 E11.56283
G1 X73.393 Y132.356 E11.89002
G1 X73.393 Y130.766 E11.94455
G1 X76.594 Y127.564 E12.09980
G1 X73.393 Y124.375 E12.25472
G1 X73.393 Y122.784 E12.30927
G1 X76.594 Y119.582 E12.46451
G1 X73.393 Y116.393 E12.61943
G1 X73.393 Y114.803 E12.67397
G1 X76.594 Y111.600 E12.82922
G1 X73.393 Y108.412 E12.98415
G1 X73.393 Y106.821 E13.03869
G1 X76.594 Y103.619 E13.19393
G1 X73.393 Y100.430 E13.34886
G1 X73.393 Y98.839 E13.40340
G1 X76.593 Y95.639 E13.55857
G1 X73.393 Y92.438 E13.71374
G1 X73.393 Y90.848 E13.76828
G1 X76.594 Y87.659 E13.92320
G1 X73.393 Y84.457 E14.07845
G1 X73.393 Y82.866 E14.13299
G1 X76.594 Y79.677 E14.28791
G1 X73.393 Y76.475 E14.44316
G1 X73.393 Y74.884 E14.49770
G1 X76.592 Y71.695 E14.65256
G1 F1800.000 E13.65256
G92 E0
G1 X76.987 Y80.168 F7800.000
G1 E1.00000 F1800.000
G1 X80.480 Y83.660 E1.16933 F540.000
G1 X76.987 Y87.168 E1.33903
G1 X74.017 Y84.198 E1.48302
G1 X74.017 Y83.125 E1.51979
G1 X76.945 Y80.210 E1.66142
G1 X76.986 Y81.051 F7800.000
G1 X79.597 Y83.661 E1.78799 F378.000
G1 X76.986 Y86.283 E1.91484
G1 X74.642 Y83.939 E2.02849
G1 X74.642 Y83.385 E2.04748
G1 X76.944 Y81.093 E2.15883
G1 X77.269 Y80.768 F7800.000
G1 X109.022 Y112.200 F7800.000
G1 X112.406 Y115.599 E2.32325 F540.000
G1 X109.022 Y118.983 E2.48732
G1 X109.022 Y112.260 E2.71779
G1 X109.647 Y113.714 F7800.000
G1 X111.523 Y115.598 E2.80895 F378.000
G1 X109.647 Y117.474 E2.89992
G1 X109.647 Y113.774 E3.02679
G1 X109.847 Y113.367 F7800.000
G1 X112.897 Y116.090 F7800.000
G1 X116.404 Y119.582 E3.19648 F540.000
G1 X112.897 Y123.089 E3.36653
G1 X109.404 Y119.582 E3.53621
G1 X112.855 Y116.132 E3.70349
G1 X112.898 Y116.973 F7800.000
G1 X115.520 Y119.583 E3.83033 F378.000
G1 X112.898 Y122.205 E3.95744
G1 X110.287 Y119.583 E4.08428
G1 X112.855 Y117.015 E4.20880
G1 X113.180 Y116.689 F7800.000
G1 X116.894 Y120.072 F7800.000
G1 X120.286 Y123.478 E4.37358 F540.000
G1 X113.502 Y123.478 E4.60615
G1 X116.851 Y120.114 E4.76888
G1 X116.894 Y120.957 F7800.000
G1 X118.781 Y122.853 E4.86059 F378.000
G1 X115.006 Y122.853 E4.99001
G1 X116.851 Y121.000 E5.07966
G1 X117.177 Y120.675 F7800.000
G1 X121.484 Y123.478 F7800.000
G1 X124.912 Y120.038 E5.24615 F540.000
G1 X125.974 Y121.216 E5.30051
G1 X125.974 Y123.478 E5.37805
G1 X121.544 Y123.478 E5.52992
G1 X122.988 Y122.853 F7800.000
G1 X124.888 Y120.945 E5.62224 F378.000
G1 X125.349 Y121.456 E5.64581
G1 X125.349 Y122.853 E5.69370
G1 X123.048 Y122.853 E5.77258
G1 X122.641 Y122.653 F7800.000
G1 X120.890 Y123.089 F7800.000
G1 X117.383 Y119.582 E5.94262 F540.000
G1 X120.890 Y116.089 E6.11231
G1 X124.384 Y119.584 E6.28174
G1 X120.933 Y123.047 E6.44936
G1 X120.890 Y122.205 F7800.000
G1 X118.268 Y119.583 E6.57646 F378.000
G1 X120.889 Y116.972 E6.70331
G1 X123.501 Y119.584 E6.82992
G1 X120.932 Y122.162 E6.95469
G1 X120.607 Y122.488 F7800.000
G1 X124.911 Y119.060 F7800.000
G1 X121.337 Y115.472 E7.12831 F540.000
G1 X122.186 Y114.791 E7.16559
G1 X124.906 Y112.059 E7.29780
G1 X125.974 Y113.118 E7.34933
G1 X125.974 Y117.993 E7.51650
G1 X124.953 Y119.018 E7.56607
G1 X124.911 Y118.175 F7800.000
G1 X122.271 Y115.524 E7.69433 F378.000
G1 X122.604 Y115.257 E7.70895
G1 X124.909 Y112.942 E7.82096
G1 X125.349 Y113.378 E7.84219
G1 X125.349 Y117.735 E7.99157
G1 X124.953 Y118.132 E8.01080
G1 X124.628 Y118.457 F7800.000
G1 F1800.000 E7.01080
G92 E0
G1 X124.909 Y111.077 F7800.000
G1 E1.00000 F1800.000
G1 X121.417 Y107.570 E1.16967 F540.000
G1 X124.908 Y104.079 E1.33894
G1 X125.974 Y105.136 E1.39041
G1 X125.974 Y110.013 E1.55760
G1 X124.951 Y111.034 E1.60715
G1 X124.910 Y110.192 F7800.000
G1 X122.300 Y107.571 E1.73398 F378.000
G1 X124.910 Y104.961 E1.86053
G1 X125.349 Y105.396 E1.88173
G1 X125.349 Y109.754 E2.03113
G1 X124.952 Y110.150 E2.05033
G1 X124.627 Y110.475 F7800.000
G1 X124.418 Y111.568 F7800.000
G1 X120.926 Y115.061 E2.21967 F540.000
G1 X117.419 Y111.568 E2.38936
G1 X120.926 Y108.061 E2.55939
G1 X124.376 Y111.525 E2.72702
G1 X123.535 Y111.567 F7800.000
G1 X120.925 Y114.178 E2.85360 F378.000
G1 X118.303 Y111.567 E2.98044
G1 X120.925 Y108.946 E3.10754
G1 X123.493 Y111.525 E3.23232
G1 X123.818 Y111.850 F7800.000
G1 X120.316 Y115.527 F7800.000
G1 X119.702 Y116.294 E3.26601 F540.000
G1 X116.892 Y119.091 E3.40193
G1 X113.400 Y115.599 E3.57126
G1 X116.895 Y112.091 E3.74102
G1 X120.274 Y115.485 E3.90520
G1 X119.479 Y115.572 F7800.000
G1 X119.236 Y115.876 E3.91853 F378.000
G1 X116.893 Y118.208 E4.03188
G1 X114.283 Y115.598 E4.15845
G1 X116.894 Y112.976 E4.28532
G1 X119.437 Y115.530 E4.40887
G1 X119.774 Y115.827 F7800.000
G1 X116.404 Y111.600 F7800.000
G1 X112.897 Y115.108 E4.57892 F540.000
G1 X109.403 Y111.599 E4.74869
G1 X112.136 Y108.878 E4.88089
G1 X112.814 Y108.026 E4.91825
G1 X116.362 Y111.558 E5.08987
G1 X115.520 Y111.601 F7800.000
G1 X112.898 Y114.223 E5.21699 F378.000
G1 X110.287 Y111.601 E5.34386
G1 X112.602 Y109.296 E5.45587
G1 X112.868 Y108.961 E5.47052
G1 X115.477 Y111.559 E5.59674
G1 X115.803 Y111.884 F7800.000
G1 X116.928 Y111.077 F7800.000
G1 X113.435 Y107.570 E5.76644 F540.000
G1 X116.928 Y104.078 E5.93578
G1 X120.435 Y107.570 E6.10546
G1 X116.970 Y111.035 E6.27344
G1 X116.929 Y110.192 F7800.000
G1 X114.318 Y107.571 E6.40028 F378.000
G1 X116.929 Y104.960 E6.52686
G1 X119.550 Y107.571 E6.65369
G1 X116.971 Y110.150 E6.77873
G1 X116.645 Y110.475 F7800.000
G1 F1800.000 E5.77873
G92 E0
G1 X119.941 Y102.531 F7800.000
G1 E1.00000 F1800.000
G1 X123.368 Y102.531 E1.11750 F540.000
G1 X124.417 Y103.588 E1.16854
G1 X120.926 Y107.079 E1.33782
G1 X117.419 Y103.586 E1.50751
G1 X119.941 Y101.065 E1.62979
G1 X119.941 Y102.471 E1.67801
G1 X119.316 Y103.156 F7800.000
G1 X123.108 Y103.156 E1.80801 F378.000
G1 X123.535 Y103.586 E1.82879
G1 X120.925 Y106.196 E1.95534
G1 X118.303 Y103.586 E2.08218
G1 X119.316 Y102.573 E2.13129
G1 X119.316 Y103.096 E2.14921
G1 X119.663 Y102.956 F7800.000
G1 X116.928 Y103.095 F7800.000
G1 X113.435 Y99.589 E2.31890 F540.000
G1 X116.928 Y96.096 E2.48824
G1 X119.941 Y99.097 E2.63404
G1 X119.941 Y100.082 E2.66781
G1 X116.970 Y103.053 E2.81186
G1 X116.929 Y102.211 F7800.000
G1 X114.318 Y99.589 E2.93870 F378.000
G1 X116.929 Y96.979 E3.06528
G1 X119.316 Y99.357 E3.18080
G1 X119.316 Y99.823 E3.19680
G1 X116.971 Y102.168 E3.31051
G1 X116.645 Y102.493 F7800.000
G1 X116.437 Y103.586 F7800.000
G1 X112.944 Y107.079 E3.47984 F540.000
G1 X109.437 Y103.587 E3.64952
G1 X112.944 Y100.080 E3.81956
G1 X116.394 Y103.544 E3.98719
G1 X115.554 Y103.586 F7800.000
G1 X112.943 Y106.196 E4.11376 F378.000
G1 X110.322 Y103.586 E4.24060
G1 X112.943 Y100.964 E4.36771
G1 X115.512 Y103.543 E4.49249
G1 X115.837 Y103.869 F7800.000
G1 F1800.000 E3.49249
G92 E0
G1 X109.022 Y108.476 F7800.000
G1 E1.00000 F1800.000
G1 X89.321 Y108.476 E1.67542 F540.000
G1 X90.969 Y110.117 E1.75514
G1 X90.969 Y113.476 E1.87033
G1 X87.327 Y113.476 E1.99519
G1 X85.969 Y112.111 E2.06122
G1 X85.969 Y136.050 E2.88194
G1 X81.462 Y131.562 E3.10001
G1 X85.461 Y127.563 E3.29390
G1 X81.462 Y123.580 E3.48740
G1 X85.461 Y119.581 E3.68129
G1 X81.462 Y115.599 E3.87478
G1 X92.950 Y104.110 E4.43181
G1 X96.933 Y108.109 E4.62530
G1 X100.932 Y104.110 E4.81920
G1 X104.921 Y108.116 E5.01302
G1 X108.913 Y104.110 E5.20691
G1 X112.404 Y107.614 E5.37648
G1 X109.022 Y111.001 E5.54055
G1 X109.022 Y108.536 E5.62506
G1 X109.647 Y107.851 F7800.000
G1 X106.067 Y107.851 E5.74780 F378.000
G1 X108.912 Y104.995 E5.88602
G1 X111.522 Y107.615 E6.01282
G1 X109.647 Y109.492 E6.10379
G1 X109.647 Y107.911 E6.15801
G1 X109.647 Y107.451 F7800.000
G1 F1800.000 E5.15801
G92 E0
G1 X103.776 Y107.851 F7800.000
G1 E1.00000 F1800.000
G1 X98.075 Y107.851 E1.19545 F378.000
G1 X100.931 Y104.995 E1.33394
G1 X103.733 Y107.808 E1.47008
G1 X103.389 Y107.747 F7800.000
G1 X95.794 Y107.851 F7800.000
G1 X90.093 Y107.851 E1.66554 F378.000
G1 X92.949 Y104.995 E1.80404
G1 X95.752 Y107.808 E1.94019
G1 X95.408 Y107.747 F7800.000
G1 X88.953 Y108.991 F7800.000
G1 X90.344 Y110.376 E2.00750 F378.000
G1 X90.344 Y112.852 E2.09237
G1 X87.587 Y112.852 E2.18690
G1 X86.342 Y111.601 E2.24739
G1 X88.911 Y109.033 E2.37190
G1 X89.057 Y109.377 F7800.000
G1 X85.344 Y112.600 F7800.000
G1 X85.344 Y118.583 E2.57701 F378.000
G1 X82.346 Y115.598 E2.72205
G1 X85.301 Y112.642 E2.86533
G1 X85.240 Y112.986 F7800.000
G1 X85.344 Y120.582 F7800.000
G1 X85.344 Y126.564 E3.07043 F378.000
G1 X82.346 Y123.579 E3.21546
G1 X85.301 Y120.624 E3.35874
G1 X85.240 Y120.968 F7800.000
G1 X85.344 Y128.563 F7800.000
G1 X85.344 Y134.546 E3.56384 F378.000
G1 X82.346 Y131.561 E3.70887
G1 X85.301 Y128.606 E3.85214
G1 X85.730 Y128.460 F7800.000
G1 X104.915 Y107.114 F7800.000
G1 X101.422 Y103.620 E4.02154 F540.000
G1 X104.915 Y100.126 E4.19095
G1 X108.422 Y103.619 E4.36064
G1 X104.958 Y107.072 E4.52833
G1 X104.916 Y106.231 F7800.000
G1 X102.305 Y103.620 E4.65493 F378.000
G1 X104.916 Y101.009 E4.78153
G1 X107.538 Y103.620 E4.90837
G1 X104.959 Y106.189 E5.03318
G1 X104.633 Y106.514 F7800.000
G1 F1800.000 E4.03318
G92 E0
G1 X100.964 Y95.114 F7800.000
G1 E1.00000 F1800.000
G1 X97.389 Y91.524 E1.17370 F540.000
G1 X104.554 Y91.524 E1.41933
G1 X101.007 Y95.072 E1.59132
G1 X100.965 Y94.229 F7800.000
G1 X98.894 Y92.149 E1.69198 F378.000
G1 X103.045 Y92.149 E1.83432
G1 X101.008 Y94.187 E1.93312
G1 X100.682 Y94.512 F7800.000
G1 X100.441 Y95.637 F7800.000
G1 X96.934 Y99.133 E2.10287 F540.000
G1 X93.441 Y95.640 E2.27220
G1 X96.240 Y92.830 E2.40818
G1 X97.008 Y92.218 E2.44183
G1 X100.398 Y95.595 E2.60588
G1 X99.556 Y95.638 F7800.000
G1 X96.935 Y98.250 E2.73275 F378.000
G1 X94.324 Y95.639 E2.85932
G1 X96.657 Y93.296 E2.97268
G1 X96.961 Y93.054 E2.98601
G1 X99.514 Y95.596 E3.10951
G1 X99.839 Y95.921 F7800.000
G1 F1800.000 E2.10951
G92 E0
G1 X88.952 Y91.151 F7800.000
G1 E1.00000 F1800.000
G1 X85.460 Y87.659 E1.16933 F540.000
G1 X88.951 Y84.151 E1.33902
G1 X90.969 Y86.169 E1.43687
G1 X90.969 Y89.143 E1.53882
G1 X88.995 Y91.109 E1.63437
G1 X88.953 Y90.268 F7800.000
G1 X86.342 Y87.658 E1.76094 F378.000
G1 X88.953 Y85.036 E1.88778
G1 X90.344 Y86.427 E1.95526
G1 X90.344 Y88.883 E2.03944
G1 X88.995 Y90.226 E2.10471
G1 X88.670 Y90.551 F7800.000
G1 X84.969 Y87.168 F7800.000
G1 X81.462 Y83.660 E2.27476 F540.000
G1 X84.966 Y80.165 E2.44444
G1 X88.460 Y83.660 E2.61388
G1 X85.011 Y87.125 E2.78151
G1 X84.968 Y86.283 F7800.000
G1 X82.346 Y83.661 E2.90862 F378.000
G1 X84.967 Y81.050 E3.03546
G1 X87.578 Y83.661 E3.16207
G1 X85.010 Y86.241 E3.28686
G1 X84.685 Y86.566 F7800.000
G1 X88.987 Y83.134 F7800.000
G1 X85.494 Y79.640 E3.45626 F540.000
G1 X88.987 Y76.135 E3.62594
G1 X90.969 Y78.116 E3.72203
G1 X90.969 Y81.161 E3.82640
G1 X89.030 Y83.092 E3.92023
G1 X88.988 Y82.251 F7800.000
G1 X86.377 Y79.640 E4.04683 F378.000
G1 X88.988 Y77.019 E4.17367
G1 X90.344 Y78.375 E4.23941
G1 X90.344 Y80.901 E4.32601
G1 X89.031 Y82.209 E4.38956
G1 X88.705 Y82.534 F7800.000
G1 F1800.000 E3.38956
G92 E0
