; generated by Slic3r 1.2.0 on 2014-11-08 at 08:08:45

; external perimeters extrusion width = 0.40mm
; perimeters extrusion width = 0.67mm
; infill extrusion width = 0.67mm
; solid infill extrusion width = 0.67mm
; top infill extrusion width = 0.67mm

G21 ; set units to millimeters
M190 S70 ; wait for bed temperature to be reached
M106 ; fan on
M104 S185 ; heat extruder
M116 ; wait for all temperatures 

G1 Z10 F5000 ; lift nozzle just to clear obstacles
G28 X0 Y0 F5000; home X and Y
G1 Z20 F5000 ; lift nozzle for purge

; purge the nozzle
G91
G1 E10 F150
G90

G1 X10 Y10 F5000 ; clear the blob
G90 ; use absolute coordinates
G92 E0
M82 ; use absolute distances for extrusion
M106 S255
G1 F1800.000 E-1.00000
G92 E0
G1 Z0.350 F7800.000
G1 X56.096 Y16.724 F7800.000
G1 E1.00000 F1800.000
G1 X56.412 Y15.729 E1.03580 F1080.000
G1 X57.457 Y13.312 E1.12608
G1 X58.278 Y11.871 E1.18294
G1 X58.797 Y11.082 E1.21531
G1 X59.808 Y9.763 E1.27230
G1 X60.408 Y9.075 E1.30360
G1 X62.084 Y7.456 E1.38348
G1 X63.160 Y6.595 E1.43073
G1 X63.760 Y6.164 E1.45607
G1 X65.555 Y5.055 E1.52839
G1 X66.829 Y4.406 E1.57740
G1 X67.470 Y4.118 E1.60151
G1 X69.425 Y3.395 E1.67295
G1 X70.905 Y3.004 E1.72545
G1 X72.905 Y2.630 E1.79521
G1 X74.273 Y2.484 E1.84237
G1 X75.014 Y2.442 E1.86782
G1 X126.154 Y2.465 E3.62109
G1 X127.862 Y2.649 E3.68000 F1080.000
G1 X128.432 Y2.738 E3.69975
G1 X130.050 Y3.076 E3.75644
G1 X130.945 Y3.317 E3.78820
G1 X131.591 Y3.524 E3.81146
G1 X133.399 Y4.243 E3.87820
G1 X135.166 Y5.158 E3.94641
G1 X136.264 Y5.847 E3.99084
G1 X136.893 Y6.290 E4.01722
G1 X138.486 Y7.616 E4.08826
G1 X139.980 Y9.203 E4.16300
G1 X141.623 Y11.479 E4.25923
G1 X142.888 Y13.914 E4.35333
G1 X143.806 Y16.474 E4.44656
G1 X144.358 Y18.965 E4.53403
G1 X144.587 Y20.872 E4.59988
G1 X144.637 Y21.741 E4.62971
G1 X144.635 Y44.689 E5.41648
G1 X142.098 Y155.383 E9.21250
G1 X141.905 Y156.851 E9.26328
G1 X141.653 Y157.942 E9.30166
G1 X141.006 Y159.966 E9.37450
G1 X140.326 Y161.433 E9.42993
G1 X139.357 Y163.105 E9.49619
G1 X137.766 Y165.155 E9.58515
G1 X137.185 Y165.736 E9.61334
G1 X135.936 Y166.891 E9.67166
G1 X134.378 Y168.032 E9.73785
G1 X89.857 Y195.190 E11.52579
G1 X88.261 Y196.027 E11.58757
G1 X86.364 Y196.784 E11.65759
G1 X84.905 Y197.179 E11.70941
G1 X83.464 Y197.450 E11.75970
G1 X82.070 Y197.558 E11.80762
G1 X73.425 Y197.524 E12.10400
G1 X71.954 Y197.330 E12.15486
G1 X70.835 Y197.070 E12.19426
G1 X68.841 Y196.440 E12.26596
G1 X67.166 Y195.674 E12.32908
G1 X65.279 Y194.556 E12.40428
G1 X63.557 Y193.192 E12.47960
G1 X62.939 Y192.583 E12.50936
G1 X61.712 Y191.249 E12.57150
G1 X60.451 Y189.451 E12.64678
G1 X59.581 Y187.835 E12.70972
G1 X58.815 Y186.039 E12.77666
G1 X58.359 Y184.498 E12.83175
G1 X58.021 Y182.832 E12.89004
G1 X57.869 Y181.240 E12.94484
G1 X55.363 Y46.779 E17.55552
G1 X55.414 Y20.335 E18.46213
G1 X55.695 Y18.398 E18.52923
G1 X56.082 Y16.783 E18.58618
G1 F1800.000 E17.58618
G92 E0
G1 X88.185 Y29.532 F7800.000
G1 E1.00000 F1800.000
G1 X88.185 Y36.728 E1.24673 F540.000
G1 X68.396 Y36.728 E1.92518
G1 X68.396 Y21.786 E2.43747
G1 X68.576 Y20.616 E2.47806
G1 X68.854 Y19.777 E2.50837
G1 X69.255 Y18.971 E2.53921
G1 X70.232 Y17.716 E2.59374
G1 X71.492 Y16.716 E2.64888
G1 X72.911 Y16.013 E2.70318
G1 X74.309 Y15.636 E2.75282
G1 X75.680 Y15.475 E2.80014
G1 X124.923 Y15.475 E4.48839
G1 X125.890 Y15.570 E4.52171
G1 X126.896 Y15.769 E4.55687
G1 X127.917 Y16.114 E4.59381
G1 X128.915 Y16.656 E4.63276
G1 X129.830 Y17.438 E4.67400
G1 X130.621 Y18.530 E4.72024
G1 X131.138 Y19.714 E4.76454
G1 X131.436 Y20.905 E4.80660
G1 X131.572 Y22.034 E4.84559
G1 X131.595 Y22.456 E4.86010
G1 X131.595 Y36.728 E5.34941
G1 X111.762 Y36.728 E6.02937
G1 X111.762 Y29.532 E6.27611
G1 X88.245 Y29.532 E7.08234
G1 X87.561 Y28.907 F7800.000
G1 X87.561 Y36.104 E7.32907 F540.000
G1 X69.021 Y36.104 E7.96467
G1 X69.021 Y21.834 E8.45390
G1 X69.186 Y20.762 E8.49106
G1 X69.433 Y20.015 E8.51805
G1 X69.786 Y19.306 E8.54521
G1 X70.679 Y18.159 E8.59503
G1 X71.828 Y17.247 E8.64534
G1 X73.133 Y16.600 E8.69527
G1 X74.427 Y16.251 E8.74121
G1 X75.716 Y16.100 E8.78571
G1 X124.892 Y16.100 E10.47166
G1 X125.798 Y16.189 E10.50288
G1 X126.734 Y16.374 E10.53559
G1 X127.666 Y16.689 E10.56929
G1 X128.559 Y17.174 E10.60415
G1 X129.367 Y17.865 E10.64059
G1 X130.075 Y18.842 E10.68196
G1 X130.544 Y19.917 E10.72217
G1 X130.820 Y21.018 E10.76110
G1 X130.949 Y22.088 E10.79804
G1 X130.970 Y22.473 E10.81125
G1 X130.970 Y36.104 E11.27857
G1 X112.387 Y36.104 E11.91568
G1 X112.387 Y28.907 E12.16241
G1 X87.621 Y28.907 E13.01149
G1 X86.936 Y28.282 F7800.000
G1 X86.936 Y35.479 E13.25822 F378.000
G1 X69.646 Y35.479 E13.85098
G1 X69.646 Y21.882 E14.31714
G1 X69.796 Y20.909 E14.35088
G1 X70.012 Y20.254 E14.37454
G1 X70.318 Y19.640 E14.39803
G1 X71.126 Y18.602 E14.44314
G1 X72.165 Y17.777 E14.48862
G1 X73.355 Y17.187 E14.53417
G1 X74.545 Y16.866 E14.57642
G1 X75.753 Y16.725 E14.61809
G1 X124.862 Y16.725 E16.30175
G1 X125.707 Y16.808 E16.33087
G1 X126.573 Y16.979 E16.36113
G1 X127.415 Y17.264 E16.39159
G1 X128.203 Y17.692 E16.42235
G1 X128.905 Y18.291 E16.45399
G1 X129.529 Y19.154 E16.49049
G1 X129.951 Y20.119 E16.52660
G1 X130.204 Y21.132 E16.56241
G1 X130.326 Y22.142 E16.59730
G1 X130.345 Y22.490 E16.60922
G1 X130.345 Y35.479 E17.05453
G1 X113.011 Y35.479 E17.64880
G1 X113.011 Y28.282 E17.89553
G1 X86.996 Y28.282 E18.78746
G1 X87.136 Y28.628 F7800.000
G1 X88.185 Y46.070 F7800.000
G1 X96.491 Y46.070 E19.07219 F540.000
G1 X96.254 Y44.838 E19.11519
G1 X96.476 Y43.687 E19.15538
G1 X90.604 Y43.687 E19.35670
G1 X90.604 Y31.827 E19.76332
G1 X109.396 Y31.827 E20.40760
G1 X109.396 Y43.687 E20.81422
G1 X104.523 Y43.687 E20.98129
G1 X104.741 Y44.838 E21.02147
G1 X104.509 Y46.070 E21.06445
G1 X111.762 Y46.070 E21.31312
G1 X111.762 Y38.291 E21.57980
G1 X131.595 Y38.291 E22.25976
G1 X131.595 Y43.834 E22.44976
G1 X131.572 Y44.245 E22.46389
G1 X131.396 Y45.738 E22.51541
G1 X130.964 Y47.533 E22.57872
G1 X130.306 Y49.240 E22.64144
G1 X129.427 Y50.843 E22.70414
G1 X128.338 Y52.333 E22.76742
G1 X127.015 Y53.752 E22.83392
G1 X125.736 Y54.898 E22.89279
G1 X124.624 Y55.984 E22.94608
G1 X123.899 Y56.870 E22.98534
G1 X123.284 Y57.816 E23.02400
G1 X122.800 Y58.808 E23.06186
G1 X122.455 Y59.862 E23.09988
G1 X122.296 Y60.693 E23.12889
G1 X122.211 Y62.039 E23.17512
G1 X122.211 Y66.864 E23.34056
G1 X108.649 Y66.864 E23.80553
G1 X108.649 Y62.172 E23.96639
G1 X90.672 Y62.172 E24.58269
G1 X90.672 Y66.864 E24.74355
G1 X76.731 Y66.864 E25.22151
G1 X76.731 Y62.039 E25.38696
G1 X76.704 Y61.580 E25.40271
G1 X76.704 Y60.828 E25.42849
G1 X76.682 Y60.420 E25.44250
G1 X76.593 Y59.450 E25.47590
G1 X76.448 Y58.617 E25.50488
G1 X76.218 Y57.927 E25.52982
G1 X75.707 Y57.092 E25.56338
G1 X75.004 Y56.234 E25.60142
G1 X73.756 Y54.917 E25.66361
G1 X71.682 Y52.943 E25.76179
G1 X71.238 Y52.468 E25.78406
G1 X69.806 Y50.851 E25.85812
G1 X69.257 Y50.070 E25.89084
G1 X68.759 Y49.125 E25.92748
G1 X68.519 Y48.101 E25.96354
G1 X68.423 Y46.936 E26.00361
G1 X68.423 Y46.511 E26.01820
G1 X68.396 Y46.079 E26.03304
G1 X68.396 Y38.291 E26.30001
G1 X88.185 Y38.291 E26.97846
G1 X88.185 Y46.010 E27.24309
G1 X87.561 Y46.695 F7800.000
G1 X97.683 Y46.695 E27.59012 F540.000
G1 X97.060 Y45.720 E27.62980
G1 X96.891 Y44.839 E27.66056
G1 X97.060 Y43.958 E27.69130
G1 X97.636 Y43.062 E27.72782
G1 X91.229 Y43.062 E27.94749
G1 X91.229 Y32.451 E28.31127
G1 X108.771 Y32.451 E28.91270
G1 X108.771 Y43.062 E29.27647
G1 X103.367 Y43.062 E29.46177
G1 X103.939 Y43.961 E29.49831
G1 X104.105 Y44.839 E29.52892
G1 X103.939 Y45.716 E29.55954
G1 X103.321 Y46.695 E29.59924
G1 X112.387 Y46.695 E29.91006
G1 X112.387 Y38.916 E30.17674
G1 X130.970 Y38.916 E30.81386
G1 X130.970 Y43.816 E30.98184
G1 X130.949 Y44.191 E30.99471
G1 X130.780 Y45.628 E31.04430
G1 X130.367 Y47.346 E31.10491
G1 X129.738 Y48.976 E31.16479
G1 X128.899 Y50.507 E31.22467
G1 X127.855 Y51.934 E31.28528
G1 X126.577 Y53.306 E31.34954
G1 X125.309 Y54.442 E31.40790
G1 X124.162 Y55.561 E31.46285
G1 X123.394 Y56.501 E31.50447
G1 X122.739 Y57.507 E31.54563
G1 X122.220 Y58.573 E31.58627
G1 X121.848 Y59.705 E31.62714
G1 X121.675 Y60.614 E31.65885
G1 X121.586 Y62.021 E31.70717
G1 X121.586 Y66.240 E31.85181
G1 X109.273 Y66.240 E32.27393
G1 X109.273 Y61.548 E32.43479
G1 X90.047 Y61.548 E33.09394
G1 X90.047 Y66.240 E33.25480
G1 X77.356 Y66.240 E33.68992
G1 X77.356 Y62.021 E33.83456
G1 X77.305 Y60.373 E33.89108
G1 X77.213 Y59.368 E33.92566
G1 X77.056 Y58.464 E33.95713
G1 X76.788 Y57.662 E33.98612
G1 X76.217 Y56.730 E34.02360
G1 X75.473 Y55.820 E34.06389
G1 X74.199 Y54.476 E34.12739
G1 X72.119 Y52.495 E34.22586
G1 X71.700 Y52.048 E34.24687
G1 X70.297 Y50.463 E34.31944
G1 X69.791 Y49.744 E34.34960
G1 X69.349 Y48.904 E34.38211
G1 X69.138 Y48.005 E34.41377
G1 X69.048 Y46.906 E34.45160
G1 X69.048 Y46.491 E34.46580
G1 X69.021 Y46.059 E34.48064
G1 X69.021 Y38.916 E34.72553
G1 X87.561 Y38.916 E35.36114
G1 X87.561 Y46.635 E35.62576
G1 X91.854 Y42.437 F7800.000
G1 X91.854 Y33.076 E35.94669 F378.000
G1 X108.146 Y33.076 E36.50527
G1 X108.146 Y42.437 E36.82620
G1 X91.914 Y42.437 E37.38273
G1 X92.054 Y42.091 F7800.000
G1 X97.651 Y44.194 F7800.000
G1 X97.993 Y43.663 E37.40440 F378.000
G1 X98.506 Y43.300 E37.42593
G1 X99.099 Y43.175 E37.44672
G1 X101.906 Y43.175 E37.54297
G1 X102.033 Y43.202 E37.54741
G1 X102.499 Y43.301 E37.56374 F378.000
G1 X103.009 Y43.664 E37.58520
G1 X103.347 Y44.196 E37.60682
G1 X103.469 Y44.839 E37.62926
G1 X103.348 Y45.483 E37.65173
G1 X103.010 Y46.017 E37.67340
G1 X102.500 Y46.384 E37.69493
G1 X101.907 Y46.512 E37.71573
G1 X99.098 Y46.512 E37.81202
G1 X98.504 Y46.384 E37.83285
G1 X97.992 Y46.018 E37.85444
G1 X97.651 Y45.484 E37.87617
G1 X97.527 Y44.839 E37.89870
G1 X97.640 Y44.253 E37.91914
G1 F1800.000 E36.91914
G92 E0
G1 X102.225 Y43.553 F7800.000
G1 X113.011 Y47.320 F7800.000
G1 E1.00000 F1800.000
G1 X113.011 Y39.541 E1.26668 F378.000
G1 X130.345 Y39.541 E1.86095
G1 X130.345 Y43.799 E2.00692
G1 X130.326 Y44.137 E2.01852
G1 X130.164 Y45.518 E2.06619
G1 X129.769 Y47.160 E2.12410
G1 X129.170 Y48.712 E2.18114
G1 X128.370 Y50.171 E2.23819
G1 X127.373 Y51.536 E2.29613
G1 X126.139 Y52.859 E2.35815
G1 X124.882 Y53.985 E2.41601
G1 X123.701 Y55.138 E2.47262
G1 X122.888 Y56.132 E2.51660
G1 X122.194 Y57.199 E2.56025
G1 X121.639 Y58.337 E2.60367
G1 X121.242 Y59.549 E2.64739
G1 X121.054 Y60.535 E2.68179
G1 X120.961 Y62.003 E2.73222
G1 X120.961 Y65.615 E2.85606
G1 X109.898 Y65.615 E3.23533
G1 X109.898 Y60.923 E3.39619
G1 X89.423 Y60.923 E4.09818
G1 X89.423 Y65.615 E4.25904
G1 X77.981 Y65.615 E4.65131
G1 X77.981 Y62.003 E4.77515
G1 X77.929 Y60.326 E4.83267
G1 X77.833 Y59.287 E4.86844
G1 X77.663 Y58.311 E4.90240
G1 X77.359 Y57.396 E4.93545
G1 X76.728 Y56.367 E4.97683
G1 X75.942 Y55.407 E5.01937
G1 X74.641 Y54.035 E5.08419
G1 X72.556 Y52.048 E5.18294
G1 X70.788 Y50.074 E5.27377
G1 X70.325 Y49.417 E5.30136
G1 X69.939 Y48.684 E5.32975
G1 X69.758 Y47.910 E5.35701
G1 X69.673 Y46.875 E5.39259
G1 X69.673 Y46.472 E5.40641
G1 X69.646 Y46.040 E5.42125
G1 X69.646 Y39.541 E5.64407
G1 X86.936 Y39.541 E6.23682
G1 X86.936 Y47.320 E6.50350
G1 X112.951 Y47.320 E7.39543
G1 X112.811 Y46.973 F7800.000
G1 F1800.000 E6.39543
G92 E0
G1 X114.205 Y114.719 F7800.000
G1 E1.00000 F1800.000
G1 X114.205 Y98.705 E1.54900 F540.000
G1 X114.299 Y97.877 E1.57759
G1 X114.600 Y97.037 E1.60817
G1 X115.069 Y96.313 E1.63775
G1 X115.661 Y95.725 E1.66635
G1 X116.336 Y95.275 E1.69418
G1 X117.070 Y94.958 E1.72157
G1 X117.840 Y94.769 E1.74875
G1 X118.570 Y94.709 E1.77388
G1 X124.299 Y94.709 E1.97028
G1 X125.032 Y94.775 E1.99552
G1 X125.821 Y94.973 E2.02341
G1 X126.583 Y95.284 E2.05163
G1 X127.309 Y95.713 E2.08053
G1 X127.976 Y96.274 E2.11042
G1 X128.550 Y96.988 E2.14183
G1 X128.961 Y97.871 E2.17522
G1 X129.099 Y98.771 E2.20644
G1 X129.099 Y114.719 E2.75317
G1 X114.265 Y114.719 E3.26175
G1 X114.830 Y114.094 F7800.000
G1 X114.830 Y98.741 E3.78812 F540.000
G1 X114.912 Y98.020 E3.81299
G1 X115.164 Y97.316 E3.83862
G1 X115.557 Y96.709 E3.86343
G1 X116.058 Y96.211 E3.88763
G1 X116.636 Y95.827 E3.91143
G1 X117.270 Y95.553 E3.93510
G1 X117.940 Y95.388 E3.95879
G1 X118.596 Y95.334 E3.98133
G1 X124.271 Y95.334 E4.17589
G1 X124.928 Y95.393 E4.19850
G1 X125.626 Y95.568 E4.22318
G1 X126.304 Y95.845 E4.24831
G1 X126.946 Y96.225 E4.27388
G1 X127.528 Y96.713 E4.29990
G1 X128.015 Y97.321 E4.32661
G1 X128.357 Y98.054 E4.35435
G1 X128.474 Y98.819 E4.38088
G1 X128.474 Y114.094 E4.90456
G1 X114.890 Y114.094 E5.37029
G1 X115.454 Y113.469 F7800.000
G1 X115.454 Y98.776 E5.87401 F378.000
G1 X115.524 Y98.163 E5.89519
G1 X115.728 Y97.595 E5.91586
G1 X116.045 Y97.104 E5.93590
G1 X116.455 Y96.697 E5.95568
G1 X116.935 Y96.378 E5.97547
G1 X117.470 Y96.147 E5.99543
G1 X118.041 Y96.006 E6.01560
G1 X118.621 Y95.959 E6.03556
G1 X124.243 Y95.959 E6.22829
G1 X124.823 Y96.011 E6.24827
G1 X125.431 Y96.163 E6.26974
G1 X126.026 Y96.407 E6.29178
G1 X126.584 Y96.737 E6.31401
G1 X127.079 Y97.152 E6.33616
G1 X127.481 Y97.653 E6.35818
G1 X127.753 Y98.237 E6.38027
G1 X127.849 Y98.867 E6.40210
G1 X127.849 Y113.469 E6.90273
G1 X115.514 Y113.469 E7.32561
G1 X115.054 Y113.469 F7800.000
G1 F1800.000 E6.32561
G92 E0
G1 X125.235 Y85.129 F7800.000
G1 E1.00000 F1800.000
G1 X124.723 Y84.787 E1.02113 F378.000
G1 X124.376 Y84.277 E1.04227
G1 X124.249 Y83.653 E1.06410
G1 X124.376 Y83.028 E1.08596
G1 X124.721 Y82.516 E1.10715
G1 X125.234 Y82.170 E1.12834
G1 X125.859 Y82.044 E1.15019
G1 X126.273 Y82.128 E1.16469
G1 X126.484 Y82.170 E1.17205 F378.000
G1 X126.996 Y82.516 E1.19324
G1 X127.341 Y83.028 E1.21443
G1 X127.468 Y83.653 E1.23629
G1 X127.341 Y84.277 E1.25813
G1 X126.995 Y84.787 E1.27926
G1 X126.482 Y85.129 E1.30038
G1 X125.859 Y85.253 E1.32219
G1 X125.294 Y85.141 E1.34192
G1 F1800.000 E0.34192
G92 E0
G1 X126.311 Y81.916 F7800.000
G1 X108.649 Y73.296 F7800.000
G1 E1.00000 F1800.000
G1 X108.649 Y68.419 E1.16721 F540.000
G1 X122.211 Y68.419 E1.63217
G1 X122.211 Y81.343 E2.07528
G1 X122.084 Y82.292 E2.10808
G1 X121.809 Y83.234 E2.14175
G1 X121.382 Y84.106 E2.17504
G1 X120.830 Y84.877 E2.20754
G1 X120.177 Y85.540 E2.23945
G1 X119.444 Y86.092 E2.27092
G1 X118.649 Y86.536 E2.30212
G1 X117.807 Y86.872 E2.33321
G1 X116.922 Y87.105 E2.36460
G1 X115.747 Y87.255 E2.40518
G1 X106.889 Y87.255 E2.70890
G1 X107.114 Y88.442 E2.75032
G1 X106.904 Y89.553 E2.78907
G1 X106.310 Y90.493 E2.82720
G1 X105.391 Y91.154 E2.86601
G1 X104.412 Y91.365 E2.90034
G1 X101.339 Y91.365 E3.00571
G1 X100.361 Y91.155 E3.03999
G1 X99.441 Y90.498 E3.07874
G1 X98.841 Y89.559 E3.11695
G1 X98.626 Y88.442 E3.15594
G1 X98.855 Y87.255 E3.19738
G1 X83.473 Y87.255 E3.72475
G1 X82.808 Y87.175 E3.74771
G1 X81.721 Y86.962 E3.78569
G1 X80.599 Y86.576 E3.82637
G1 X79.395 Y85.913 E3.87351
G1 X78.316 Y84.991 E3.92216
G1 X77.447 Y83.823 E3.97206
G1 X76.899 Y82.461 E4.02238
G1 X76.731 Y81.329 E4.06164
G1 X76.731 Y68.419 E4.50425
G1 X90.672 Y68.419 E4.98222
G1 X90.672 Y73.296 E5.14942
G1 X96.527 Y73.296 E5.35013
G1 X96.254 Y71.879 E5.39958
G1 X96.425 Y70.992 E5.43056
G1 X93.003 Y70.992 E5.54788
G1 X93.003 Y64.468 E5.77156
G1 X106.318 Y64.468 E6.22807
G1 X106.318 Y70.992 E6.45176
G1 X104.574 Y70.992 E6.51157
G1 X104.741 Y71.879 E6.54254
G1 X104.473 Y73.296 E6.59196
G1 X108.589 Y73.296 E6.73306
G1 X109.273 Y73.921 F7800.000
G1 X109.273 Y69.044 E6.90027 F540.000
G1 X121.586 Y69.044 E7.32239
G1 X121.586 Y81.302 E7.74265
G1 X121.471 Y82.162 E7.77241
G1 X121.224 Y83.008 E7.80261
G1 X120.844 Y83.785 E7.83227
G1 X120.351 Y84.473 E7.86131
G1 X119.764 Y85.068 E7.88995
G1 X119.102 Y85.567 E7.91838
G1 X118.379 Y85.970 E7.94674
G1 X117.611 Y86.278 E7.97513
G1 X116.802 Y86.491 E8.00379
G1 X115.708 Y86.630 E8.04162
G1 X105.717 Y86.630 E8.38414
G1 X106.311 Y87.565 E8.42211
G1 X106.478 Y88.442 E8.45272
G1 X106.312 Y89.319 E8.48334
G1 X105.846 Y90.057 E8.51323
G1 X105.132 Y90.571 E8.54340
G1 X104.346 Y90.740 E8.57098
G1 X101.405 Y90.740 E8.67180
G1 X100.619 Y90.571 E8.69936
G1 X99.903 Y90.060 E8.72953
G1 X99.432 Y89.323 E8.75949
G1 X99.263 Y88.442 E8.79025
G1 X99.433 Y87.561 E8.82102
G1 X100.032 Y86.630 E8.85896
G1 X83.511 Y86.630 E9.42537
G1 X82.906 Y86.557 E9.44626
G1 X81.883 Y86.357 E9.48197
G1 X80.853 Y86.003 E9.51932
