; generated by Slic3r 1.2.0 on 2014-11-20 at 20:40:10

; external perimeters extrusion width = 0.40mm
; perimeters extrusion width = 0.43mm
; infill extrusion width = 0.43mm
; solid infill extrusion width = 0.43mm
; top infill extrusion width = 0.43mm

G21 ; set units to millimeters
M190 S70 ; wait for bed temperature to be reached
M106 ; fan on
M109 S200 ; heat extruder
M116 ; wait for all temperatures 

G1 Z10 F5000 ; lift nozzle just to clear obstacles
G28 X0 Y0 F5000; home X and Y
G28 Z0; home Z to slightly below bed height
G1 Z1.20 F5000; raise to proper z0 height
G92 Z0; set Z offset

G1 Z20 F5000 ; lift nozzle for purge

; purge the nozzle
G91
G1 E10 F150
G90

G1 X10 Y10 F5000 ; clear the blob
G90 ; use absolute coordinates
G92 E0
M82 ; use absolute distances for extrusion
M106 S255
G1 F1800.000 E-1.00000
G92 E0
G1 Z0.350 F7800.000
G1 X15.606 Y12.769 F7800.000
G1 E1.00000 F1800.000
G1 X16.034 Y12.245 E1.02369 F1080.000
G1 X16.970 Y11.310 E1.07003
G1 X18.223 Y10.287 E1.12666
G1 X19.279 Y9.581 E1.17116
G1 X20.708 Y8.813 E1.22795
G1 X21.910 Y8.313 E1.27353
G1 X23.471 Y7.837 E1.33068
G1 X24.755 Y7.581 E1.37652
G1 X26.275 Y7.431 E1.43000
G1 X27.018 Y7.390 E1.45606
G1 X173.631 Y7.422 E6.59008
G1 X175.245 Y7.581 E6.64688 F1080.000
G1 X176.529 Y7.837 E6.69272
G1 X178.090 Y8.313 E6.74986
G1 X179.292 Y8.813 E6.79544
G1 X180.721 Y9.581 E6.85224
G1 X181.760 Y10.272 E6.89595
G1 X183.021 Y11.295 E6.95282
G1 X183.992 Y12.266 E7.00090
G1 X185.015 Y13.528 E7.05777
G1 X185.707 Y14.567 E7.10151
G1 X186.474 Y15.996 E7.15830
G1 X186.974 Y17.196 E7.20381
G1 X187.450 Y18.757 E7.26096
G1 X187.707 Y20.043 E7.30688
G1 X187.857 Y21.563 E7.36037
G1 X187.897 Y22.305 E7.38639
G1 X187.891 Y53.737 E8.48706
G1 X182.878 Y163.405 E12.33135
G1 X182.667 Y164.589 E12.37346
G1 X182.201 Y166.311 E12.43592
G1 X181.755 Y167.442 E12.47849
G1 X181.007 Y168.949 E12.53741
G1 X180.363 Y169.955 E12.57925
G1 X179.310 Y171.330 E12.63990
G1 X178.441 Y172.234 E12.68378
G1 X177.123 Y173.379 E12.74494
G1 X176.164 Y174.043 E12.78577
G1 X174.658 Y174.915 E12.84671
G1 X173.582 Y175.389 E12.88789
G1 X131.851 Y191.532 E14.45472
G1 X130.207 Y192.091 E14.51551
G1 X129.064 Y192.344 E14.55653
G1 X127.353 Y192.578 E14.61698
G1 X126.292 Y192.610 E14.65416
G1 X31.794 Y192.606 E17.96324
G1 X30.045 Y192.484 E18.02461
G1 X28.896 Y192.275 E18.06552
G1 X27.219 Y191.825 E18.12634
G1 X26.046 Y191.363 E18.17048
G1 X24.535 Y190.613 E18.22955
G1 X23.549 Y189.983 E18.27053
G1 X22.132 Y188.900 E18.33299
G1 X21.258 Y188.065 E18.37528
G1 X20.110 Y186.752 E18.43635
G1 X19.433 Y185.780 E18.47782
G1 X18.561 Y184.274 E18.53876
G1 X18.075 Y183.167 E18.58112
G1 X17.516 Y181.520 E18.64204
G1 X17.256 Y180.337 E18.68444
G1 X17.035 Y178.699 E18.74232
G1 X12.103 Y53.438 E23.13202
G1 X12.134 Y21.657 E24.24489
G1 X12.293 Y20.043 E24.30169
G1 X12.550 Y18.757 E24.34761
G1 X13.026 Y17.196 E24.40476
G1 X13.526 Y15.996 E24.45028
G1 X14.293 Y14.567 E24.50706
G1 X15.002 Y13.506 E24.55176
G1 X15.568 Y12.815 E24.58303
G1 F1800.000 E23.58303
G92 E0
G1 X128.734 Y50.594 F7800.000
G1 E1.00000 F1800.000
G1 X134.854 Y50.594 E1.21431 F540.000
G1 X147.978 Y63.795 E1.86614
G1 X133.554 Y63.795 E2.37124
G1 X109.691 Y39.932 E3.55300
G1 X109.691 Y25.512 E4.05795
G1 X128.734 Y44.555 E5.00104
G1 X128.734 Y50.534 E5.21040
G1 X128.109 Y51.219 F7800.000
G1 X134.594 Y51.219 E5.43748 F540.000
G1 X146.476 Y63.170 E6.02760
G1 X133.812 Y63.170 E6.47103
G1 X110.315 Y39.673 E7.63466
G1 X110.315 Y27.020 E8.07772
G1 X128.109 Y44.814 E8.95892
G1 X128.109 Y51.159 E9.18110
G1 X127.484 Y51.844 F7800.000
G1 X134.334 Y51.844 E9.42096 F378.000
G1 X144.973 Y62.545 E9.94937
G1 X134.071 Y62.545 E10.33113
G1 X110.940 Y39.414 E11.47663
G1 X110.940 Y28.529 E11.85780
G1 X127.484 Y45.073 E12.67710
G1 X127.484 Y51.784 E12.91210
G1 X127.831 Y51.644 F7800.000
G1 F1800.000 E11.91210
G92 E0
G1 X151.837 Y33.791 F7800.000
G1 E1.00000 F1800.000
G1 X137.417 Y33.791 E1.50496 F540.000
G1 X124.352 Y20.727 E2.15192
G1 X138.773 Y20.727 E2.65688
G1 X151.794 Y33.749 E3.30174
G1 X150.328 Y33.166 F7800.000
G1 X137.675 Y33.166 E3.74480 F540.000
G1 X125.861 Y21.352 E4.32987
G1 X138.514 Y21.352 E4.77294
G1 X150.286 Y33.124 E5.35590
G1 X148.820 Y32.541 F7800.000
G1 X137.934 Y32.541 E5.73708 F378.000
G1 X127.370 Y21.977 E6.26025
G1 X138.255 Y21.977 E6.64143
G1 X148.777 Y32.499 E7.16250
G1 X148.923 Y32.928 F7800.000
G1 X158.219 Y20.727 F7800.000
G1 X174.582 Y20.727 E7.73548 F540.000
G1 X174.582 Y37.090 E8.30848
G1 X158.262 Y20.770 E9.11670
G1 X159.728 Y21.352 F7800.000
G1 X173.957 Y21.352 E9.61497 F540.000
G1 X173.957 Y35.582 E10.11325
G1 X159.770 Y21.395 E10.81582
G1 X161.237 Y21.977 F7800.000
G1 X173.332 Y21.977 E11.23938 F378.000
G1 X173.332 Y34.073 E11.66296
G1 X161.279 Y22.020 E12.25987
G1 X161.133 Y21.591 F7800.000
G1 F1800.000 E11.25987
G92 E0
G1 X169.581 Y55.038 F7800.000
G1 E1.00000 F1800.000
G1 X169.581 Y60.038 E1.17510 F540.000
G1 X163.663 Y60.038 E1.38234
G1 X155.538 Y51.913 E1.78471
G1 X155.538 Y37.493 E2.28966
G1 X173.083 Y55.038 E3.15851
G1 X169.641 Y55.038 E3.27903
G1 X168.956 Y54.413 F7800.000
G1 X168.956 Y59.413 E3.45413 F540.000
G1 X163.922 Y59.413 E3.63042
G1 X156.163 Y51.654 E4.01466
G1 X156.163 Y39.002 E4.45772
G1 X171.575 Y54.413 E5.22092
G1 X169.016 Y54.413 E5.31049
G1 X168.332 Y53.788 F7800.000
G1 X168.332 Y58.788 E5.48560 F378.000
G1 X164.181 Y58.788 E5.63094
G1 X156.788 Y51.395 E5.99705
G1 X156.788 Y40.510 E6.37822
G1 X170.066 Y53.788 E7.03576
G1 X168.392 Y53.788 E7.09439
G1 X168.532 Y54.134 F7800.000
G1 F1800.000 E6.09439
G92 E0
G1 X146.238 Y49.120 F7800.000
G1 E1.00000 F1800.000
G1 X146.432 Y50.078 E1.03424 F540.000
G1 X146.206 Y51.196 E1.07418
G1 X145.585 Y52.116 E1.11305
G1 X144.628 Y52.762 E1.15348
G1 X139.644 Y52.762 E1.32802
G1 X138.687 Y52.111 E1.36855
G1 X138.072 Y51.190 E1.40731
G1 X137.850 Y50.078 E1.44703
G1 X138.042 Y49.120 E1.48125
G1 X130.209 Y49.120 E1.75556
G1 X130.209 Y35.257 E2.24098
G1 X154.064 Y35.257 E3.07631
G1 X154.064 Y49.120 E3.56173
G1 X146.298 Y49.120 E3.83367
G1 X145.133 Y48.495 F7800.000
G1 X145.618 Y49.207 E3.86383 F540.000
G1 X145.795 Y50.078 E3.89495
G1 X145.618 Y50.950 E3.92610
G1 X145.135 Y51.666 E3.95635
G1 X144.437 Y52.137 E3.98584
G1 X139.836 Y52.137 E4.14695
G1 X139.139 Y51.663 E4.17647
G1 X138.661 Y50.946 E4.20664
G1 X138.487 Y50.078 E4.23763
G1 X138.661 Y49.211 E4.26861
G1 X139.143 Y48.495 E4.29882
G1 X130.834 Y48.495 E4.58977
G1 X130.834 Y35.882 E5.03143
G1 X153.439 Y35.882 E5.82300
G1 X153.439 Y48.495 E6.26465
G1 X145.193 Y48.495 E6.55338
G1 X152.814 Y47.870 F7800.000
G1 X131.459 Y47.870 E7.30118 F378.000
G1 X131.459 Y36.507 E7.69907
G1 X152.814 Y36.507 E8.44687
G1 X152.814 Y47.810 E8.84266
G1 X152.467 Y47.670 F7800.000
G1 X145.030 Y49.455 F7800.000
G1 X145.157 Y50.078 E8.86496 F378.000
G1 X145.031 Y50.704 E8.88729
G1 X144.685 Y51.216 E8.90893
G1 X144.246 Y51.512 E8.92748
G1 X140.029 Y51.512 E9.07516
G1 X139.591 Y51.215 E9.09368
G1 X139.249 Y50.702 E9.11524
G1 X139.125 Y50.078 E9.13753
G1 X139.250 Y49.456 E9.15976
G1 X139.592 Y48.946 E9.18128
G1 X140.102 Y48.603 E9.20280
G1 X140.690 Y48.485 E9.22380
G1 X143.582 Y48.485 E9.32506
G1 X143.961 Y48.561 E9.33859
G1 X144.171 Y48.603 E9.34609 F378.000
G1 X144.684 Y48.945 E9.36767
G1 X144.997 Y49.405 E9.38715
G1 X143.912 Y48.352 F7800.000
G1 F1800.000 E8.38715
G92 E0
G1 X138.912 Y88.599 F7800.000
G1 E1.00000 F1800.000
G1 X139.612 Y88.128 E1.02957 F540.000
G1 X140.567 Y87.937 E1.06366
G1 X143.706 Y87.937 E1.17357
G1 X144.659 Y88.127 E1.20760
G1 X145.580 Y88.742 E1.24640
G1 X146.205 Y89.661 E1.28532
G1 X146.432 Y90.780 E1.32529
G1 X146.206 Y91.897 E1.36521
G1 X145.585 Y92.818 E1.40409
G1 X144.665 Y93.439 E1.44296
G1 X143.867 Y93.600 E1.47148
G1 X140.406 Y93.600 E1.59266
G1 X139.606 Y93.438 E1.62126
G1 X138.687 Y92.813 E1.66017
G1 X138.072 Y91.891 E1.69895
G1 X137.850 Y90.780 E1.73865
G1 X138.000 Y90.033 E1.76531
G1 X125.925 Y90.033 E2.18815
G1 X119.692 Y83.800 E2.49684
G1 X119.692 Y69.379 E3.00180
G1 X138.869 Y88.557 E3.95151
G1 X138.837 Y89.408 F7800.000
G1 X126.184 Y89.408 E4.39458 F540.000
G1 X120.317 Y83.541 E4.68514
G1 X120.317 Y70.888 E5.12821
G1 X138.794 Y89.366 E6.04326
G1 X137.328 Y88.783 F7800.000
G1 X126.443 Y88.783 E6.42445 F378.000
G1 X120.941 Y83.282 E6.69688
G1 X120.941 Y72.397 E7.07806
G1 X137.286 Y88.741 E7.88746
G1 X137.432 Y89.170 F7800.000
G1 X138.661 Y89.913 F7800.000
G1 X139.142 Y89.197 E7.91762 F540.000
G1 X139.857 Y88.716 E7.94781
G1 X140.629 Y88.562 E7.97536
G1 X143.644 Y88.562 E8.08094 F540.000
G1 X144.415 Y88.716 E8.10847
G1 X145.132 Y89.194 E8.13866
G1 X145.618 Y89.909 E8.16892
G1 X145.795 Y90.780 E8.20005
G1 X145.618 Y91.651 E8.23117
G1 X145.135 Y92.368 E8.26143
G1 X144.419 Y92.851 E8.29169
G1 X143.804 Y92.976 E8.31365
G1 X140.469 Y92.976 E8.43044
G1 X139.853 Y92.850 E8.45243
G1 X139.139 Y92.365 E8.48268
G1 X138.661 Y91.648 E8.51286
G1 X138.487 Y90.780 E8.54384
G1 X138.650 Y89.971 E8.57272
G1 X139.250 Y90.158 F7800.000
G1 X139.592 Y89.648 E8.59424 F378.000
G1 X140.102 Y89.305 E8.61577
G1 X140.691 Y89.187 E8.63677
G1 X143.582 Y89.187 E8.73803
G1 X143.961 Y89.262 E8.75155
G1 X144.171 Y89.304 E8.75905 F378.000
G1 X144.684 Y89.647 E8.78064
G1 X145.030 Y90.156 E8.80222
G1 X145.157 Y90.780 E8.82452
G1 X145.031 Y91.405 E8.84684
G1 X144.685 Y91.918 E8.86849
G1 X144.172 Y92.263 E8.89013
G1 X143.741 Y92.351 E8.90554
G1 X140.532 Y92.351 E9.01792
G1 X140.101 Y92.263 E9.03332
G1 X139.591 Y91.916 E9.05490
G1 X139.249 Y91.404 E9.07648
G1 X139.125 Y90.780 E9.09875
G1 X139.238 Y90.216 E9.11888
G1 F1800.000 E8.11888
G92 E0
G1 X144.074 Y89.080 F7800.000
G1 X146.130 Y76.250 F7800.000
G1 E1.00000 F1800.000
G1 X145.585 Y77.057 E1.03412 F540.000
G1 X144.550 Y77.756 E1.07785
G1 X139.721 Y77.756 E1.24695
G1 X138.687 Y77.052 E1.29076
G1 X138.072 Y76.131 E1.32953
G1 X137.850 Y75.019 E1.36923
G1 X138.032 Y74.114 E1.40158
G1 X135.201 Y74.114 E1.50071
G1 X135.201 Y65.261 E1.81071
G1 X149.063 Y65.261 E2.29613
G1 X149.063 Y74.114 E2.60613
G1 X146.248 Y74.114 E2.70469
G1 X146.432 Y75.019 E2.73704
G1 X146.317 Y75.589 E2.75738
G1 X150.538 Y75.589 E2.90519
G1 X150.538 Y66.359 E3.22839
G1 X164.590 Y80.411 E3.92426
G1 X164.590 Y90.033 E4.26121
G1 X159.797 Y90.033 E4.42904
G1 X146.173 Y76.292 E5.10664
G1 X145.169 Y73.489 F7800.000
G1 X145.618 Y74.148 E5.13457 F540.000
G1 X145.795 Y75.020 E5.16570
G1 X145.618 Y75.891 E5.19683
G1 X145.135 Y76.607 E5.22708
G1 X144.359 Y77.131 E5.25988
G1 X139.914 Y77.131 E5.41554
G1 X139.139 Y76.604 E5.44835
G1 X138.661 Y75.887 E5.47852
G1 X138.487 Y75.020 E5.50951
G1 X138.661 Y74.152 E5.54049
G1 X139.107 Y73.489 E5.56847
G1 X135.826 Y73.489 E5.68338
G1 X135.826 Y65.886 E5.94962
G1 X148.438 Y65.886 E6.39127
G1 X148.438 Y73.489 E6.65751
G1 X145.229 Y73.489 E6.76987
G1 X147.813 Y72.864 F7800.000
G1 X136.451 Y72.864 E7.16776 F378.000
G1 X136.451 Y66.511 E7.39023
G1 X147.813 Y66.511 E7.78812
G1 X147.813 Y72.804 E8.00849
G1 X147.467 Y72.664 F7800.000
G1 X144.996 Y74.345 F7800.000
G1 X145.030 Y74.396 E8.01066 F378.000
G1 X145.157 Y75.020 E8.03296
G1 X145.031 Y75.645 E8.05529
G1 X144.685 Y76.157 E8.07693
G1 X144.168 Y76.506 E8.09878
G1 X140.106 Y76.506 E8.24101
G1 X139.591 Y76.156 E8.26281
G1 X139.249 Y75.644 E8.28438
G1 X139.125 Y75.020 E8.30666
G1 X139.250 Y74.397 E8.32889
G1 X139.592 Y73.887 E8.35041
G1 X140.102 Y73.544 E8.37193
G1 X140.690 Y73.427 E8.39293
G1 X143.582 Y73.427 E8.49420
G1 X143.961 Y73.502 E8.50772
G1 X144.171 Y73.544 E8.51522 F378.000
G1 X144.684 Y73.886 E8.53680
G1 X144.962 Y74.295 E8.55411
G1 X143.912 Y73.294 F7800.000
G1 X151.163 Y76.214 F7800.000
G1 X151.163 Y67.868 E8.84637 F540.000
G1 X163.965 Y80.670 E9.48035
G1 X163.965 Y89.408 E9.78635
G1 X160.057 Y89.408 E9.92319
G1 X146.975 Y76.214 E10.57385
G1 X151.103 Y76.214 E10.71841
G1 X151.788 Y76.839 F7800.000
G1 X151.788 Y69.376 E10.97971 F378.000
G1 X163.340 Y80.929 E11.55181
G1 X163.340 Y88.783 E11.82686
G1 X160.318 Y88.783 E11.93270
G1 X148.474 Y76.839 E12.52173
G1 X151.728 Y76.839 E12.63566
G1 X151.588 Y76.492 F7800.000
G1 F1800.000 E11.63566
G92 E0
G1 X151.380 Y101.068 F7800.000
G1 E1.00000 F1800.000
G1 X169.581 Y119.269 E1.90137 F540.000
G1 X169.581 Y133.689 E2.40632
G1 X151.380 Y115.488 E3.30769
G1 X151.380 Y101.128 E3.81054
G1 X152.005 Y102.577 F7800.000
G1 X168.956 Y119.528 E4.65002 F540.000
G1 X168.956 Y132.181 E5.09308
G1 X152.005 Y115.229 E5.93256
G1 X152.005 Y102.637 E6.37352
G1 X152.630 Y104.085 F7800.000
G1 X168.332 Y119.787 E7.15110 F378.000
G1 X168.332 Y130.672 E7.53227
G1 X152.630 Y114.970 E8.30986
G1 X152.630 Y104.145 E8.68893
G1 X152.830 Y103.739 F7800.000
G1 X166.673 Y93.029 F7800.000
G1 X166.327 Y92.516 E8.71058 F378.000
G1 X166.201 Y91.892 E8.73289
G1 X166.327 Y91.267 E8.75522
G1 X166.673 Y90.755 E8.77686
G1 X167.185 Y90.409 E8.79851
G1 X167.810 Y90.282 E8.82085
G1 X168.164 Y90.354 E8.83348
G1 X168.434 Y90.409 E8.84314 F378.000
G1 X168.944 Y90.756 E8.86474
G1 X169.286 Y91.268 E8.88630
G1 X169.410 Y91.892 E8.90858
G1 X169.286 Y92.515 E8.93084
G1 X168.931 Y93.037 E8.95293
G1 X168.434 Y93.374 E8.97397
G1 X167.810 Y93.501 E8.99626
G1 X167.185 Y93.375 E9.01859
G1 X166.722 Y93.062 E9.03814
G1 F1800.000 E8.03814
G92 E0
G1 X168.229 Y90.086 F7800.000
G1 X133.616 Y98.215 F7800.000
G1 E1.00000 F1800.000
G1 X130.128 Y95.137 E1.16288 F540.000
G1 X154.145 Y95.137 E2.00388
G1 X150.781 Y98.105 E2.16095
G1 X150.376 Y98.595 E2.18321
G1 X150.091 Y99.136 E2.20464
G1 X149.905 Y99.740 E2.22678
G1 X149.839 Y100.429 E2.25100
G1 X149.839 Y128.318 E3.22761
G1 X134.429 Y128.318 E3.76723
G1 X134.429 Y106.634 E4.52656
G1 X133.616 Y106.796 E4.55557
G1 X132.504 Y106.573 E4.59532
G1 X131.583 Y105.955 E4.63415
G1 X130.964 Y105.034 E4.67300
G1 X130.778 Y104.101 E4.70632
G1 X130.778 Y100.920 E4.81770
G1 X130.964 Y99.988 E4.85098
G1 X131.578 Y99.067 E4.88976
G1 X132.497 Y98.441 E4.92869
G1 X133.557 Y98.226 E4.96656
G1 X134.873 Y99.106 F7800.000
G1 X134.420 Y98.246 E5.00060 F540.000
G1 X133.942 Y97.669 E5.02685
G1 X131.781 Y95.762 E5.12776
G1 X152.492 Y95.762 E5.85300
G1 X150.331 Y97.669 E5.95391
G1 X149.853 Y98.246 E5.98015
G1 X149.510 Y98.896 E6.00589
G1 X149.289 Y99.618 E6.03232
G1 X149.214 Y100.399 E6.05980
G1 X149.214 Y127.693 E7.01558
G1 X135.054 Y127.693 E7.51143
G1 X135.054 Y105.606 E8.28489
G1 X134.484 Y105.986 E8.30887
G1 X133.617 Y106.159 E8.33985
G1 X132.749 Y105.985 E8.37084
G1 X132.034 Y105.504 E8.40102
G1 X131.553 Y104.789 E8.43120
G1 X131.403 Y104.039 E8.45798
G1 X131.403 Y100.982 E8.56504
G1 X131.552 Y100.232 E8.59182
G1 X132.031 Y99.515 E8.62199
G1 X132.745 Y99.029 E8.65226
G1 X133.617 Y98.852 E8.68340
G1 X134.814 Y99.094 E8.72617
G1 X135.229 Y101.111 F7800.000
G1 X135.679 Y101.066 E8.74201 F378.000
G1 X135.679 Y100.356 E8.76688
G1 X135.596 Y99.482 E8.79762
G1 X135.342 Y98.657 E8.82785
G1 X134.942 Y97.898 E8.85790
G1 X134.392 Y97.232 E8.88813
G1 X133.434 Y96.387 E8.93288
G1 X150.839 Y96.387 E9.54237
G1 X149.881 Y97.232 E9.58712
G1 X149.330 Y97.898 E9.61735
G1 X148.930 Y98.657 E9.64740
G1 X148.673 Y99.495 E9.67812
G1 X148.589 Y100.369 E9.70886
G1 X148.589 Y127.068 E10.64379
G1 X135.679 Y127.068 E11.09589
G1 X135.679 Y103.954 E11.90529
G1 X135.229 Y103.909 E11.92113
G1 X135.100 Y104.545 E11.94388
G1 X134.753 Y105.055 E11.96547
G1 X134.240 Y105.397 E11.98704
G1 X133.617 Y105.522 E12.00931
G1 X132.994 Y105.397 E12.03156
G1 X132.484 Y105.054 E12.05307
G1 X132.141 Y104.544 E12.07460
G1 X132.028 Y103.977 E12.09484
G1 X132.028 Y101.043 E12.19757
G1 X132.141 Y100.476 E12.21785
G1 X132.483 Y99.963 E12.23942
G1 X132.992 Y99.616 E12.26101
G1 X133.617 Y99.490 E12.28332
G1 X134.242 Y99.616 E12.30564
G1 X134.754 Y99.962 E12.32729
G1 X135.100 Y100.474 E12.34893
G1 X135.217 Y101.053 E12.36959
G1 X135.545 Y100.867 F7800.000
G1 X132.884 Y129.886 F7800.000
G1 X146.331 Y129.886 E12.84048 F540.000
G1 X169.581 Y153.136 E13.99188
G1 X169.581 Y163.067 E14.33964
G1 X165.092 Y163.067 E14.49684
G1 X151.380 Y149.355 E15.17590
G1 X151.380 Y148.065 E15.22106
G1 X150.090 Y148.065 E15.26621
G1 X131.911 Y129.886 E16.16651
G1 X114.682 Y112.657 E17.01970
G1 X114.682 Y98.237 E17.52466
G1 X132.884 Y116.438 E18.42604
G1 X132.884 Y129.826 E18.89482
G1 X132.259 Y129.350 F7800.000
