; generated by Slic3r 1.2.0 on 2014-11-20 at 21:39:12

; external perimeters extrusion width = 0.40mm
; perimeters extrusion width = 0.43mm
; infill extrusion width = 0.43mm
; solid infill extrusion width = 0.43mm
; top infill extrusion width = 0.43mm

G21 ; set units to millimeters
M190 S70 ; wait for bed temperature to be reached
M106 ; fan on
M109 S200 ; heat extruder
M116 ; wait for all temperatures 

G1 Z10 F5000 ; lift nozzle just to clear obstacles
G28 X0 Y0 F5000; home X and Y
G28 Z0; home Z to slightly below bed height
G1 Z1.20 F5000; raise to proper z0 height
G92 Z0; set Z offset

G1 Z20 F5000 ; lift nozzle for purge

; purge the nozzle
G91
G1 E10 F150
G90

G1 X10 Y10 F5000 ; clear the blob
G90 ; use absolute coordinates
G92 E0
M82 ; use absolute distances for extrusion
M106 S255
G1 F1800.000 E-1.00000
G92 E0
G1 Z0.350 F7800.000
G1 X55.107 Y16.815 F7800.000
G1 E1.00000 F1800.000
G1 X55.162 Y16.632 E1.00668 F1080.000
G1 X55.662 Y15.432 E1.05222
G1 X56.429 Y14.003 E1.10901
G1 X57.139 Y12.942 E1.15371
G1 X58.171 Y11.680 E1.21077
G1 X59.106 Y10.745 E1.25709
G1 X60.359 Y9.722 E1.31372
G1 X61.416 Y9.016 E1.35823
G1 X62.845 Y8.249 E1.41502
G1 X64.046 Y7.749 E1.46060
G1 X65.607 Y7.273 E1.51775
G1 X66.891 Y7.016 E1.56359
G1 X68.411 Y6.867 E1.61707
G1 X69.154 Y6.825 E1.64314
G1 X131.495 Y6.857 E3.82615
G1 X133.109 Y7.016 E3.88295 F1080.000
G1 X134.393 Y7.273 E3.92879
G1 X135.954 Y7.749 E3.98593
G1 X137.156 Y8.249 E4.03152
G1 X138.584 Y9.016 E4.08831
G1 X139.624 Y9.708 E4.13204
G1 X140.885 Y10.731 E4.18890
G1 X141.855 Y11.702 E4.23696
G1 X142.879 Y12.963 E4.29383
G1 X143.571 Y14.003 E4.33758
G1 X144.338 Y15.432 E4.39437
G1 X144.838 Y16.632 E4.43990
G1 X145.314 Y18.193 E4.49706
G1 X145.571 Y19.479 E4.54296
G1 X145.720 Y20.999 E4.59644
G1 X145.761 Y21.741 E4.62246
G1 X145.754 Y54.302 E5.76267
G1 X140.742 Y163.970 E9.60695
G1 X140.531 Y165.154 E9.64906
G1 X140.065 Y166.875 E9.71152
G1 X139.638 Y167.963 E9.75244
G1 X138.871 Y169.513 E9.81301
G1 X138.226 Y170.520 E9.85487
G1 X137.174 Y171.894 E9.91548
G1 X136.304 Y172.799 E9.95945
G1 X134.987 Y173.943 E10.02052
G1 X134.028 Y174.607 E10.06137
G1 X132.522 Y175.480 E10.12231
G1 X131.446 Y175.954 E10.16349
G1 X89.715 Y192.097 E11.73033
G1 X88.071 Y192.655 E11.79111
G1 X86.927 Y192.908 E11.83213
G1 X85.218 Y193.142 E11.89256
G1 X84.156 Y193.175 E11.92976
G1 X73.930 Y193.171 E12.28785
G1 X72.182 Y193.048 E12.34922
G1 X71.032 Y192.839 E12.39012
G1 X69.355 Y192.389 E12.45094
G1 X68.182 Y191.927 E12.49508
G1 X66.671 Y191.178 E12.55415
G1 X65.646 Y190.520 E12.59678
G1 X64.304 Y189.498 E12.65588
G1 X63.395 Y188.629 E12.69990
G1 X62.246 Y187.317 E12.76096
G1 X61.544 Y186.304 E12.80413
G1 X60.678 Y184.796 E12.86503
G1 X60.212 Y183.731 E12.90571
G1 X59.652 Y182.084 E12.96663
G1 X59.393 Y180.901 E13.00904
G1 X59.172 Y179.263 E13.06692
G1 X54.239 Y54.002 E17.45662
G1 X54.271 Y21.093 E18.60903
G1 X54.429 Y19.479 E18.66581
G1 X54.686 Y18.193 E18.71171
G1 X55.089 Y16.872 E18.76009
G1 F1800.000 E17.76009
G92 E0
G1 X86.598 Y50.594 F7800.000
G1 E1.00000 F1800.000
G1 X93.073 Y50.594 E1.22673 F540.000
G1 X93.356 Y51.628 E1.26424
G1 X105.468 Y63.795 E1.86543
G1 X91.043 Y63.795 E2.37057
G1 X67.554 Y40.307 E3.53376
G1 X67.554 Y25.886 E4.03872
G1 X86.598 Y44.930 E4.98180
G1 X86.598 Y50.534 E5.17804
G1 X85.973 Y51.219 F7800.000
G1 X92.596 Y51.219 E5.40995 F540.000
G1 X92.797 Y51.952 E5.43654
G1 X103.964 Y63.170 E5.99085
G1 X91.301 Y63.170 E6.43426
G1 X68.179 Y40.048 E7.57933
G1 X68.179 Y27.395 E8.02239
G1 X85.973 Y45.189 E8.90359
G1 X85.973 Y51.159 E9.11264
G1 X85.348 Y51.844 F7800.000
G1 X92.119 Y51.844 E9.34974 F378.000
G1 X92.237 Y52.276 E9.36541
G1 X102.460 Y62.545 E9.87283
G1 X91.560 Y62.545 E10.25453
G1 X68.804 Y39.789 E11.38146
G1 X68.804 Y28.904 E11.76264
G1 X85.348 Y45.448 E12.58194
G1 X85.348 Y51.784 E12.80381
G1 X85.695 Y51.644 F7800.000
G1 F1800.000 E11.80381
G92 E0
G1 X109.326 Y33.791 F7800.000
G1 E1.00000 F1800.000
G1 X94.905 Y33.791 E1.50496 F540.000
G1 X81.277 Y20.163 E2.17987
G1 X95.697 Y20.163 E2.68484
G1 X109.283 Y33.749 E3.35765
G1 X107.817 Y33.166 F7800.000
G1 X95.164 Y33.166 E3.80071 F540.000
G1 X82.785 Y20.788 E4.41373
G1 X95.438 Y20.788 E4.85681
G1 X107.775 Y33.124 E5.46772
G1 X106.308 Y32.541 F7800.000
G1 X95.423 Y32.541 E5.84890 F378.000
G1 X84.294 Y21.413 E6.40003
G1 X95.180 Y21.413 E6.78121
G1 X106.266 Y32.499 E7.33024
G1 X106.412 Y32.928 F7800.000
G1 X115.144 Y20.163 F7800.000
G1 X132.446 Y20.163 E7.93610 F540.000
G1 X132.446 Y37.465 E8.54199
G1 X115.186 Y20.205 E9.39672
G1 X116.652 Y20.788 F7800.000
G1 X131.821 Y20.788 E9.92788 F540.000
G1 X131.821 Y35.957 E10.45906
G1 X116.695 Y20.830 E11.20814
G1 X118.161 Y21.413 F7800.000
G1 X131.196 Y21.413 E11.66459 F378.000
G1 X131.196 Y34.448 E12.12105
G1 X118.203 Y21.455 E12.76448
G1 X118.058 Y21.026 F7800.000
G1 F1800.000 E11.76448
G92 E0
G1 X127.445 Y55.602 F7800.000
G1 E1.00000 F1800.000
G1 X127.445 Y60.602 E1.17510 F540.000
G1 X121.717 Y60.602 E1.37569
G1 X113.402 Y52.288 E1.78745
G1 X113.402 Y37.868 E2.29241
G1 X131.136 Y55.602 E3.17065
G1 X127.505 Y55.602 E3.29781
G1 X126.820 Y54.977 F7800.000
G1 X126.820 Y59.978 E3.47291 F540.000
G1 X121.976 Y59.978 E3.64255
G1 X114.027 Y52.029 E4.03619
G1 X114.027 Y39.376 E4.47925
G1 X129.628 Y54.977 E5.25183
G1 X126.880 Y54.977 E5.34805
G1 X126.195 Y54.352 F7800.000
G1 X126.195 Y59.353 E5.52315 F378.000
G1 X122.234 Y59.353 E5.66185
G1 X114.652 Y51.770 E6.03735
G1 X114.652 Y40.885 E6.41852
G1 X128.119 Y54.352 E7.08545
G1 X126.255 Y54.352 E7.15072
G1 X126.395 Y54.699 F7800.000
G1 F1800.000 E6.15072
G92 E0
G1 X104.101 Y49.120 F7800.000
G1 E1.00000 F1800.000
G1 X104.296 Y50.078 E1.03424 F540.000
G1 X104.070 Y51.196 E1.07418
G1 X103.449 Y52.116 E1.11305
G1 X102.492 Y52.762 E1.15348
G1 X97.507 Y52.762 E1.32802
G1 X96.551 Y52.111 E1.36855
G1 X95.936 Y51.190 E1.40731
G1 X95.714 Y50.078 E1.44703
G1 X95.906 Y49.120 E1.48125
G1 X88.073 Y49.120 E1.75556
G1 X88.073 Y35.257 E2.24098
G1 X111.927 Y35.257 E3.07631
G1 X111.927 Y49.120 E3.56173
G1 X104.161 Y49.120 E3.83367
G1 X102.997 Y48.495 F7800.000
G1 X103.482 Y49.207 E3.86383 F540.000
G1 X103.658 Y50.078 E3.89495
G1 X103.482 Y50.950 E3.92610
G1 X102.999 Y51.666 E3.95635
G1 X102.301 Y52.137 E3.98584
G1 X97.700 Y52.137 E4.14695
G1 X97.003 Y51.663 E4.17647
G1 X96.525 Y50.946 E4.20664
G1 X96.351 Y50.078 E4.23763
G1 X96.525 Y49.211 E4.26862
G1 X97.006 Y48.495 E4.29882
G1 X88.698 Y48.495 E4.58977
G1 X88.698 Y35.882 E5.03143
G1 X111.302 Y35.882 E5.82300
G1 X111.302 Y48.495 E6.26465
G1 X103.057 Y48.495 E6.55338
G1 X110.678 Y47.870 F7800.000
G1 X89.322 Y47.870 E7.30118 F378.000
G1 X89.322 Y36.507 E7.69907
G1 X110.678 Y36.507 E8.44687
G1 X110.678 Y47.810 E8.84267
G1 X110.331 Y47.670 F7800.000
G1 X102.894 Y49.455 F7800.000
G1 X103.021 Y50.078 E8.86496 F378.000
G1 X102.894 Y50.704 E8.88729
G1 X102.549 Y51.216 E8.90893
G1 X102.109 Y51.512 E8.92748
G1 X97.892 Y51.512 E9.07516
G1 X97.455 Y51.215 E9.09368
G1 X97.113 Y50.702 E9.11525
G1 X96.988 Y50.078 E9.13753
G1 X97.113 Y49.456 E9.15976
G1 X97.456 Y48.946 E9.18128
G1 X97.966 Y48.603 E9.20280
G1 X98.554 Y48.485 E9.22380
G1 X101.446 Y48.485 E9.32506
G1 X101.825 Y48.561 E9.33859
G1 X102.035 Y48.603 E9.34609 F378.000
G1 X102.547 Y48.945 E9.36767
G1 X102.860 Y49.405 E9.38715
G1 X101.776 Y48.352 F7800.000
G1 F1800.000 E8.38715
G92 E0
G1 X96.553 Y88.752 F7800.000
G1 E1.00000 F1800.000
G1 X96.754 Y88.452 E1.01264 F540.000
G1 X103.246 Y88.452 E1.23999
G1 X104.069 Y89.661 E1.29121
G1 X104.296 Y90.780 E1.33117
G1 X104.070 Y91.897 E1.37110
G1 X103.449 Y92.818 E1.40998
G1 X102.529 Y93.438 E1.44884
G1 X101.572 Y93.633 E1.48303
G1 X98.428 Y93.633 E1.59313
G1 X97.470 Y93.438 E1.62737
G1 X96.551 Y92.813 E1.66629
G1 X95.936 Y91.891 E1.70507
G1 X95.677 Y90.598 E1.75127
G1 X83.978 Y90.598 E2.16094
G1 X77.555 Y84.175 E2.47902
G1 X77.555 Y69.754 E2.98398
G1 X96.510 Y88.709 E3.92266
G1 X96.648 Y89.730 F7800.000
G1 X97.087 Y89.077 E3.95024 F540.000
G1 X102.916 Y89.077 E4.15434
G1 X103.482 Y89.909 E4.18958
G1 X103.658 Y90.780 E4.22071
G1 X103.482 Y91.651 E4.25183
G1 X102.999 Y92.368 E4.28210
G1 X102.282 Y92.851 E4.31235
G1 X101.509 Y93.008 E4.33997
G1 X98.491 Y93.008 E4.44568
G1 X97.717 Y92.850 E4.47332
G1 X97.003 Y92.365 E4.50357
G1 X96.525 Y91.648 E4.53375
G1 X96.351 Y90.780 E4.56473
G1 X96.513 Y89.973 E4.59356
G1 X84.237 Y89.973 E5.02344
G1 X78.180 Y83.916 E5.32338
G1 X78.180 Y71.263 E5.76646
G1 X96.605 Y89.688 E6.67890
G1 X95.381 Y89.348 F7800.000
G1 X84.496 Y89.348 E7.06008 F378.000
G1 X78.805 Y83.657 E7.34190
G1 X78.805 Y72.772 E7.72308
G1 X95.339 Y89.305 E8.54187
G1 X94.995 Y89.244 F7800.000
G1 X97.420 Y89.702 F7800.000
G1 X102.585 Y89.702 E8.72274 F378.000
G1 X102.894 Y90.156 E8.74199
G1 X103.021 Y90.780 E8.76428
G1 X102.894 Y91.405 E8.78661
G1 X102.549 Y91.918 E8.80825
G1 X102.036 Y92.263 E8.82990
G1 X101.447 Y92.383 E8.85097
G1 X98.554 Y92.383 E8.95227
G1 X97.965 Y92.263 E8.97331
G1 X97.455 Y91.916 E8.99490
G1 X97.113 Y91.404 E9.01647
G1 X96.988 Y90.780 E9.03874
G1 X97.113 Y90.158 E9.06098
G1 X97.386 Y89.751 E9.07811
G1 X97.498 Y89.309 F7800.000
G1 X103.846 Y76.469 F7800.000
G1 X103.449 Y77.057 E9.10297 F540.000
G1 X102.414 Y77.756 E9.14671
G1 X97.585 Y77.756 E9.31580
G1 X96.551 Y77.052 E9.35962
G1 X95.936 Y76.131 E9.39838
G1 X95.714 Y75.019 E9.43809
G1 X95.896 Y74.114 E9.47043
G1 X93.065 Y74.114 E9.56956
G1 X93.065 Y65.261 E9.87956
G1 X106.927 Y65.261 E10.36498
G1 X106.927 Y74.114 E10.67498
G1 X104.112 Y74.114 E10.77354
G1 X104.296 Y75.019 E10.80590
G1 X104.181 Y75.589 E10.82624
G1 X108.402 Y75.589 E10.97404
G1 X108.402 Y66.734 E11.28411
G1 X122.453 Y80.786 E11.97999
G1 X122.453 Y90.598 E12.32357
G1 X117.849 Y90.598 E12.48482
G1 X103.888 Y76.511 E13.17929
G1 X103.033 Y73.489 F7800.000
G1 X103.482 Y74.148 E13.20722 F540.000
G1 X103.658 Y75.020 E13.23835
G1 X103.482 Y75.891 E13.26948
G1 X102.999 Y76.607 E13.29973
G1 X102.223 Y77.131 E13.33253
G1 X97.777 Y77.131 E13.48819
G1 X97.003 Y76.604 E13.52100
G1 X96.525 Y75.887 E13.55117
G1 X96.351 Y75.020 E13.58216
G1 X96.525 Y74.152 E13.61314
G1 X96.971 Y73.489 E13.64112
G1 X93.689 Y73.489 E13.75603
G1 X93.689 Y65.886 E14.02227
G1 X106.302 Y65.886 E14.46392
G1 X106.302 Y73.489 E14.73016
G1 X103.093 Y73.489 E14.84252
G1 X105.677 Y72.864 F7800.000
G1 X94.314 Y72.864 E15.24041 F378.000
G1 X94.314 Y66.511 E15.46288
G1 X105.677 Y66.511 E15.86077
G1 X105.677 Y72.804 E16.08114
G1 X105.331 Y72.664 F7800.000
G1 X102.859 Y74.345 F7800.000
G1 X102.894 Y74.396 E16.08332 F378.000
G1 X103.021 Y75.020 E16.10561
G1 X102.894 Y75.645 E16.12794
G1 X102.549 Y76.157 E16.14958
G1 X102.031 Y76.506 E16.17143
G1 X97.970 Y76.506 E16.31366
G1 X97.455 Y76.156 E16.33546
G1 X97.113 Y75.644 E16.35703
G1 X96.988 Y75.020 E16.37931
G1 X97.113 Y74.397 E16.40155
G1 X97.456 Y73.887 E16.42306
G1 X97.966 Y73.544 E16.44458
G1 X98.554 Y73.427 E16.46558
G1 X101.446 Y73.427 E16.56685
G1 X101.825 Y73.502 E16.58037
G1 X102.035 Y73.544 E16.58787 F378.000
G1 X102.547 Y73.886 E16.60945
G1 X102.825 Y74.295 E16.62676
G1 X101.776 Y73.294 F7800.000
G1 X109.027 Y76.214 F7800.000
G1 X109.027 Y68.243 E16.90589 F540.000
G1 X121.829 Y81.045 E17.53988
G1 X121.829 Y89.973 E17.85251
G1 X118.109 Y89.973 E17.98276
G1 X104.473 Y76.214 E18.66110
G1 X108.967 Y76.214 E18.81846
G1 X109.651 Y76.838 F7800.000
G1 X109.651 Y69.751 E19.06664 F378.000
G1 X121.204 Y81.303 E19.63873
G1 X121.204 Y89.348 E19.92042
G1 X118.370 Y89.348 E20.01966
G1 X105.972 Y76.838 E20.63639
G1 X109.591 Y76.838 E20.76313
G1 X109.451 Y76.492 F7800.000
G1 F1800.000 E19.76313
G92 E0
G1 X109.244 Y101.443 F7800.000
G1 E1.00000 F1800.000
G1 X127.445 Y119.644 E1.90137 F540.000
G1 X127.445 Y134.065 E2.40633
G1 X109.244 Y115.863 E3.30770
G1 X109.244 Y101.503 E3.81056
G1 X109.869 Y102.951 F7800.000
G1 X126.820 Y119.903 E4.65004 F540.000
G1 X126.820 Y132.556 E5.09311
G1 X109.869 Y115.604 E5.93259
G1 X109.869 Y103.011 E6.37356
G1 X110.494 Y104.460 F7800.000
G1 X126.195 Y120.162 E7.15114 F378.000
G1 X126.195 Y131.047 E7.53233
G1 X110.494 Y115.345 E8.30991
G1 X110.494 Y104.520 E8.68899
G1 X110.694 Y104.114 F7800.000
G1 X124.536 Y93.029 F7800.000
G1 X124.191 Y92.516 E8.71064 F378.000
G1 X124.059 Y91.864 E8.73396
G1 X124.432 Y91.406 E8.75464
G1 X124.829 Y90.659 E8.78426
G1 X124.897 Y90.439 E8.79232
G1 X125.674 Y90.282 E8.82009
G1 X126.027 Y90.354 E8.83272
G1 X126.298 Y90.409 E8.84239 F378.000
G1 X126.808 Y90.756 E8.86398
G1 X127.150 Y91.268 E8.88555
G1 X127.274 Y91.892 E8.90782
G1 X127.150 Y92.515 E8.93008
G1 X126.808 Y93.028 E8.95166
G1 X126.298 Y93.374 E8.97325
G1 X125.674 Y93.501 E8.99554
G1 X125.049 Y93.375 E9.01788
G1 X124.586 Y93.062 E9.03742
G1 F1800.000 E8.03742
G92 E0
G1 X126.092 Y90.086 F7800.000
G1 X90.960 Y98.320 F7800.000
G1 E1.00000 F1800.000
G1 X87.992 Y95.702 E1.13859 F540.000
G1 X112.008 Y95.702 E1.97957
G1 X108.645 Y98.669 E2.13664
G1 X108.239 Y99.159 E2.15890
G1 X107.954 Y99.701 E2.18034
G1 X107.769 Y100.305 E2.20247
G1 X107.703 Y100.993 E2.22669
G1 X107.703 Y128.883 E3.20330
G1 X92.293 Y128.883 E3.74293
G1 X92.293 Y106.634 E4.52202
G1 X91.480 Y106.796 E4.55104
G1 X90.367 Y106.573 E4.59078
G1 X89.447 Y105.955 E4.62961
G1 X88.828 Y105.034 E4.66846
G1 X88.642 Y104.101 E4.70178
G1 X88.642 Y100.920 E4.81316
G1 X88.827 Y99.988 E4.84644
G1 X89.442 Y99.067 E4.88522
G1 X90.361 Y98.441 E4.92415
G1 X90.901 Y98.332 E4.94344
G1 X92.486 Y99.056 F7800.000
G1 X91.806 Y98.233 E4.98082 F540.000
G1 X89.645 Y96.326 E5.08173
G1 X110.355 Y96.326 E5.80696
G1 X108.195 Y98.233 E5.90787
G1 X107.717 Y98.811 E5.93411
G1 X107.374 Y99.461 E5.95986
G1 X107.152 Y100.182 E5.98628
G1 X107.078 Y100.964 E6.01376
G1 X107.078 Y128.258 E6.96954
G1 X92.918 Y128.258 E7.46540
G1 X92.918 Y105.606 E8.25862
G1 X92.348 Y105.986 E8.28260
G1 X91.480 Y106.159 E8.31358
G1 X90.612 Y105.985 E8.34457
G1 X89.897 Y105.504 E8.37475
G1 X89.416 Y104.789 E8.40493
G1 X89.266 Y104.039 E8.43171
G1 X89.266 Y100.982 E8.53877
G1 X89.416 Y100.232 E8.56555
G1 X89.894 Y99.515 E8.59572
G1 X90.609 Y99.029 E8.62599
G1 X91.480 Y98.852 E8.65713
G1 X92.427 Y99.044 E8.69096
G1 X93.078 Y101.040 F7800.000
G1 X93.547 Y100.971 E8.70757 F378.000
G1 X93.459 Y100.047 E8.74007
G1 X93.206 Y99.221 E8.77030
G1 X92.806 Y98.462 E8.80035
G1 X92.256 Y97.797 E8.83059
G1 X91.297 Y96.951 E8.87534
G1 X108.703 Y96.951 E9.48482
G1 X107.744 Y97.797 E9.52956
G1 X107.194 Y98.462 E9.55980
G1 X106.794 Y99.221 E9.58985
G1 X106.536 Y100.060 E9.62056
G1 X106.453 Y100.934 E9.65131
G1 X106.453 Y127.633 E10.58624
G1 X93.542 Y127.633 E11.03834
G1 X93.542 Y103.954 E11.86751
G1 X93.092 Y103.909 E11.88335
G1 X92.963 Y104.545 E11.90610
G1 X92.617 Y105.055 E11.92768
G1 X92.104 Y105.397 E11.94926
G1 X91.480 Y105.522 E11.97153
G1 X90.858 Y105.397 E11.99377
G1 X90.348 Y105.054 E12.01529
G1 X90.005 Y104.544 E12.03682
G1 X89.891 Y103.977 E12.05706
G1 X89.891 Y101.043 E12.15979
G1 X90.005 Y100.476 E12.18007
G1 X90.346 Y99.963 E12.20164
G1 X90.856 Y99.616 E12.22323
G1 X91.480 Y99.490 E12.24554
G1 X92.105 Y99.616 E12.26786
G1 X92.618 Y99.962 E12.28951
G1 X92.963 Y100.474 E12.31115
G1 X93.066 Y100.981 E12.32927
G1 X93.387 Y100.786 F7800.000
G1 X90.747 Y130.450 F7800.000
G1 X104.384 Y130.450 E12.80679 F540.000
G1 X127.445 Y153.511 E13.94881
G1 X127.445 Y163.631 E14.30321
G1 X123.146 Y163.631 E14.45376
G1 X109.244 Y149.730 E15.14221
G1 X109.244 Y148.630 E15.18073
G1 X108.144 Y148.630 E15.21926
G1 X72.546 Y113.032 E16.98213
G1 X72.546 Y98.611 E17.48709
G1 X90.747 Y116.813 E18.38847
G1 X90.747 Y130.390 E18.86389
G1 X90.123 Y129.725 F7800.000
G1 X73.171 Y112.773 E19.70338 F540.000
G1 X73.171 Y100.120 E20.14645
G1 X90.123 Y117.072 E20.98594
G1 X90.123 Y129.665 E21.42690
G1 X89.498 Y128.216 F7800.000
G1 X73.796 Y112.514 E22.20449 F378.000
G1 X73.796 Y101.629 E22.58567
G1 X89.498 Y117.331 E23.36327
G1 X89.498 Y128.156 E23.74233
G1 X89.298 Y128.562 F7800.000
G1 F1800.000 E22.74233
G92 E0
G1 X109.869 Y148.005 F7800.000
G1 E1.00000 F1800.000
G1 X108.402 Y148.005 E1.05134 F540.000
G1 X91.473 Y131.075 E1.88974
G1 X104.125 Y131.075 E2.33282
G1 X126.820 Y153.770 E3.45671
G1 X126.820 Y163.006 E3.78016
G1 X123.404 Y163.006 E3.89977
G1 X109.869 Y149.471 E4.57008
G1 X109.869 Y148.065 E4.61933
