; generated by Slic3r 1.2.0 on 2014-11-19 at 22:21:05

; external perimeters extrusion width = 0.40mm
; perimeters extrusion width = 0.67mm
; infill extrusion width = 0.67mm
; solid infill extrusion width = 0.67mm
; top infill extrusion width = 0.67mm

G21 ; set units to millimeters
M190 S70 ; wait for bed temperature to be reached
M106 ; fan on
M109 S185 ; heat extruder
M116 ; wait for all temperatures 

G1 Z10 F5000 ; lift nozzle just to clear obstacles
G28 X0 Y0 F5000; home X and Y
G28 Z0; home Z to slightly below bed height
G1 Z1.20 F5000; raise to proper z0 height
G92 Z0; set Z offset

G1 Z20 F5000 ; lift nozzle for purge

; purge the nozzle
G91
G1 E10 F150
G90

G1 X10 Y10 F5000 ; clear the blob
G90 ; use absolute coordinates
G92 E0
M82 ; use absolute distances for extrusion
M106 S255
G1 F1800.000 E-1.00000
G92 E0
G1 Z0.350 F7800.000
G1 X55.162 Y17.196 F7800.000
G1 E1.00000 F1800.000
G1 X55.662 Y15.996 E1.04457 F1080.000
G1 X56.429 Y14.567 E1.10016
G1 X57.138 Y13.506 E1.14392
G1 X58.170 Y12.245 E1.19979
G1 X59.107 Y11.310 E1.24516
G1 X60.359 Y10.287 E1.30060
G1 X61.416 Y9.581 E1.34417
G1 X62.845 Y8.813 E1.39978
G1 X64.046 Y8.313 E1.44440
G1 X65.607 Y7.837 E1.50035
G1 X66.891 Y7.581 E1.54523
G1 X68.411 Y7.431 E1.59759
G1 X69.154 Y7.390 E1.62311
G1 X131.495 Y7.422 E3.76041
G1 X133.109 Y7.581 E3.81602 F1080.000
G1 X134.393 Y7.837 E3.86090
G1 X135.954 Y8.313 E3.91685
G1 X137.155 Y8.813 E3.96147
G1 X138.584 Y9.581 E4.01708
G1 X139.624 Y10.272 E4.05988
G1 X140.885 Y11.295 E4.11555
G1 X141.856 Y12.266 E4.16262
G1 X142.879 Y13.528 E4.21830
G1 X143.571 Y14.567 E4.26113
G1 X144.338 Y15.996 E4.31673
G1 X144.838 Y17.196 E4.36129
G1 X145.314 Y18.757 E4.41724
G1 X145.571 Y20.043 E4.46220
G1 X145.720 Y21.563 E4.51457
G1 X145.761 Y22.305 E4.54004
G1 X145.754 Y53.737 E5.61766
G1 X140.742 Y163.405 E9.38145
G1 X140.531 Y164.589 E9.42267
G1 X140.065 Y166.311 E9.48383
G1 X139.618 Y167.442 E9.52551
G1 X138.871 Y168.949 E9.58319
G1 X138.226 Y169.955 E9.62416
G1 X137.174 Y171.330 E9.68353
G1 X136.305 Y172.234 E9.72649
G1 X134.987 Y173.379 E9.78637
G1 X134.028 Y174.043 E9.82635
G1 X132.522 Y174.915 E9.88601
G1 X131.446 Y175.389 E9.92633
G1 X89.715 Y191.532 E11.46035
G1 X88.071 Y192.091 E11.51987
G1 X86.927 Y192.344 E11.56003
G1 X85.217 Y192.578 E11.61921
G1 X84.156 Y192.610 E11.65561
G1 X73.930 Y192.606 E12.00620
G1 X72.182 Y192.484 E12.06628
G1 X71.032 Y192.275 E12.10633
G1 X69.355 Y191.825 E12.16587
G1 X68.182 Y191.363 E12.20910
G1 X66.671 Y190.613 E12.26692
G1 X65.685 Y189.983 E12.30704
G1 X64.304 Y188.933 E12.36652
G1 X63.395 Y188.065 E12.40961
G1 X62.246 Y186.752 E12.46940
G1 X61.570 Y185.780 E12.51001
G1 X60.698 Y184.274 E12.56967
G1 X60.212 Y183.167 E12.61114
G1 X59.652 Y181.520 E12.67078
G1 X59.393 Y180.337 E12.71230
G1 X59.172 Y178.699 E12.76897
G1 X54.239 Y53.438 E17.06674
G1 X54.271 Y21.657 E18.15630
G1 X54.429 Y20.043 E18.21191
G1 X54.686 Y18.757 E18.25687
G1 X55.145 Y17.254 E18.31077
G1 F1800.000 E17.31077
G92 E0
G1 X86.598 Y50.594 F7800.000
G1 E1.00000 F1800.000
G1 X92.718 Y50.594 E1.20982 F540.000
G1 X105.842 Y63.795 E1.84800
G1 X91.417 Y63.795 E2.34253
G1 X67.554 Y39.932 E3.49953
G1 X67.554 Y25.512 E3.99391
G1 X86.598 Y44.555 E4.91725
G1 X86.598 Y50.534 E5.12222
G1 X85.973 Y51.219 F7800.000
G1 X92.458 Y51.219 E5.34455 F540.000
G1 X104.339 Y63.170 E5.92231
G1 X91.676 Y63.170 E6.35646
G1 X68.179 Y39.673 E7.49572
G1 X68.179 Y27.020 E7.92950
G1 X85.973 Y44.814 E8.79224
G1 X85.973 Y51.159 E9.00977
G1 X85.348 Y51.844 F7800.000
G1 X92.198 Y51.844 E9.24461 F378.000
G1 X102.837 Y62.545 E9.76196
G1 X91.935 Y62.545 E10.13572
G1 X68.804 Y39.414 E11.25723
G1 X68.804 Y28.529 E11.63042
G1 X85.348 Y45.073 E12.43256
G1 X85.348 Y51.784 E12.66264
G1 X85.695 Y51.644 F7800.000
G1 F1800.000 E11.66264
G92 E0
G1 X109.700 Y33.791 F7800.000
G1 E1.00000 F1800.000
G1 X95.280 Y33.791 E1.49438 F540.000
G1 X82.216 Y20.727 E2.12779
G1 X96.636 Y20.727 E2.62218
G1 X109.658 Y33.749 E3.25353
G1 X108.192 Y33.166 F7800.000
G1 X95.539 Y33.166 E3.68732 F540.000
G1 X83.725 Y21.352 E4.26014
G1 X96.378 Y21.352 E4.69393
G1 X108.149 Y33.124 E5.26468
G1 X106.683 Y32.541 F7800.000
G1 X95.798 Y32.541 E5.63787 F378.000
G1 X85.233 Y21.977 E6.15009
G1 X96.119 Y21.977 E6.52329
G1 X106.641 Y32.499 E7.03345
G1 X106.787 Y32.928 F7800.000
G1 X116.083 Y20.727 F7800.000
G1 X132.446 Y20.727 E7.59443 F540.000
G1 X132.446 Y37.090 E8.15542
G1 X116.125 Y20.770 E8.94672
G1 X117.592 Y21.352 F7800.000
G1 X131.821 Y21.352 E9.43456 F540.000
G1 X131.821 Y35.582 E9.92240
G1 X117.634 Y21.395 E10.61026
G1 X119.100 Y21.977 F7800.000
G1 X131.196 Y21.977 E11.02495 F378.000
G1 X131.196 Y34.073 E11.43965
G1 X119.143 Y22.020 E12.02407
G1 X118.997 Y21.591 F7800.000
G1 F1800.000 E11.02407
G92 E0
G1 X127.445 Y55.038 F7800.000
G1 E1.00000 F1800.000
G1 X127.445 Y60.038 E1.17144 F540.000
G1 X121.527 Y60.038 E1.37433
G1 X113.402 Y51.913 E1.76827
G1 X113.402 Y37.493 E2.26265
G1 X130.947 Y55.038 E3.11331
G1 X127.505 Y55.038 E3.23130
G1 X126.820 Y54.413 F7800.000
G1 X126.820 Y59.413 E3.40274 F540.000
G1 X121.786 Y59.413 E3.57534
G1 X114.027 Y51.654 E3.95153
G1 X114.027 Y39.002 E4.38531
G1 X129.438 Y54.413 E5.13253
G1 X126.880 Y54.413 E5.22022
G1 X126.195 Y53.788 F7800.000
G1 X126.195 Y58.788 E5.39166 F378.000
G1 X122.045 Y58.788 E5.53396
G1 X114.652 Y51.395 E5.89241
G1 X114.652 Y40.510 E6.26559
G1 X127.930 Y53.788 E6.90936
G1 X126.255 Y53.788 E6.96676
G1 X126.395 Y54.134 F7800.000
G1 F1800.000 E5.96676
G92 E0
G1 X104.101 Y49.120 F7800.000
G1 E1.00000 F1800.000
G1 X104.296 Y50.078 E1.03352 F540.000
G1 X104.070 Y51.196 E1.07263
G1 X103.449 Y52.116 E1.11068
G1 X102.492 Y52.762 E1.15026
G1 X97.507 Y52.762 E1.32115
G1 X96.551 Y52.111 E1.36083
G1 X95.936 Y51.190 E1.39878
G1 X95.714 Y50.078 E1.43767
G1 X95.906 Y49.120 E1.47117
G1 X88.073 Y49.120 E1.73973
G1 X88.073 Y35.257 E2.21499
G1 X111.927 Y35.257 E3.03282
G1 X111.927 Y49.120 E3.50808
G1 X104.161 Y49.120 E3.77433
G1 X102.997 Y48.495 F7800.000
G1 X103.482 Y49.207 E3.80386 F540.000
G1 X103.658 Y50.078 E3.83433
G1 X103.482 Y50.950 E3.86482
G1 X102.999 Y51.666 E3.89444
G1 X102.301 Y52.137 E3.92331
G1 X97.700 Y52.137 E4.08104
G1 X97.003 Y51.663 E4.10995
G1 X96.525 Y50.946 E4.13948
G1 X96.351 Y50.078 E4.16983
G1 X96.525 Y49.211 E4.20016
G1 X97.006 Y48.495 E4.22974
G1 X88.698 Y48.495 E4.51460
G1 X88.698 Y35.882 E4.94700
G1 X111.302 Y35.882 E5.72199
G1 X111.302 Y48.495 E6.15440
G1 X103.057 Y48.495 E6.43708
G1 X110.678 Y47.870 F7800.000
G1 X89.322 Y47.870 E7.16922 F378.000
G1 X89.322 Y36.507 E7.55878
G1 X110.678 Y36.507 E8.29092
G1 X110.678 Y47.810 E8.67843
G1 X110.331 Y47.670 F7800.000
G1 X102.894 Y49.455 F7800.000
G1 X103.021 Y50.078 E8.70025 F378.000
G1 X102.894 Y50.704 E8.72212
G1 X102.549 Y51.216 E8.74330
G1 X102.109 Y51.512 E8.76147
G1 X97.892 Y51.512 E8.90605
G1 X97.455 Y51.215 E8.92418
G1 X97.113 Y50.702 E8.94530
G1 X96.988 Y50.078 E8.96711
G1 X97.113 Y49.456 E8.98888
G1 X97.456 Y48.946 E9.00995
G1 X97.966 Y48.603 E9.03102
G1 X98.554 Y48.485 E9.05158
G1 X101.446 Y48.485 E9.15072
G1 X101.825 Y48.561 E9.16396
G1 X102.035 Y48.603 E9.17130 F378.000
G1 X102.547 Y48.945 E9.19243
G1 X102.860 Y49.405 E9.21151
G1 X101.776 Y48.352 F7800.000
G1 F1800.000 E8.21151
G92 E0
G1 X96.775 Y88.599 F7800.000
G1 E1.00000 F1800.000
G1 X97.476 Y88.128 E1.02895 F540.000
G1 X98.430 Y87.937 E1.06233
G1 X101.569 Y87.937 E1.16994
G1 X102.522 Y88.127 E1.20326
G1 X103.444 Y88.742 E1.24124
G1 X104.069 Y89.661 E1.27935
G1 X104.296 Y90.780 E1.31848
G1 X104.070 Y91.897 E1.35756
G1 X103.449 Y92.818 E1.39563
G1 X102.529 Y93.439 E1.43368
G1 X101.731 Y93.600 E1.46160
G1 X98.270 Y93.600 E1.58025
G1 X97.470 Y93.438 E1.60825
G1 X96.551 Y92.813 E1.64635
G1 X95.936 Y91.891 E1.68432
G1 X95.714 Y90.780 E1.72318
G1 X95.864 Y90.033 E1.74929
G1 X83.789 Y90.033 E2.16327
G1 X77.555 Y83.800 E2.46549
G1 X77.555 Y69.379 E2.95988
G1 X96.733 Y88.557 E3.88970
G1 X96.700 Y89.408 F7800.000
G1 X84.047 Y89.408 E4.32349 F540.000
G1 X78.180 Y83.541 E4.60796
G1 X78.180 Y70.888 E5.04176
G1 X96.658 Y89.366 E5.93765
G1 X95.192 Y88.783 F7800.000
G1 X84.306 Y88.783 E6.31085 F378.000
G1 X78.805 Y83.282 E6.57757
G1 X78.805 Y72.397 E6.95077
G1 X95.149 Y88.741 E7.74322
G1 X95.295 Y89.170 F7800.000
G1 X96.525 Y89.913 F7800.000
G1 X97.006 Y89.197 E7.77276 F540.000
G1 X97.721 Y88.716 E7.80231
G1 X98.492 Y88.562 E7.82928
G1 X101.508 Y88.562 E7.93266 F540.000
G1 X102.279 Y88.716 E7.95961
G1 X102.996 Y89.194 E7.98917
G1 X103.482 Y89.909 E8.01879
G1 X103.658 Y90.780 E8.04926
G1 X103.482 Y91.651 E8.07973
G1 X102.999 Y92.368 E8.10937
G1 X102.282 Y92.851 E8.13899
G1 X101.668 Y92.976 E8.16049
G1 X98.333 Y92.976 E8.27483
G1 X97.717 Y92.850 E8.29636
G1 X97.003 Y92.365 E8.32598
G1 X96.525 Y91.648 E8.35553
G1 X96.351 Y90.780 E8.38586
G1 X96.513 Y89.971 E8.41414
G1 X97.113 Y90.158 F7800.000
G1 X97.456 Y89.648 E8.43520 F378.000
G1 X97.966 Y89.305 E8.45628
G1 X98.554 Y89.187 E8.47684
G1 X101.446 Y89.187 E8.57598
G1 X101.825 Y89.262 E8.58922
G1 X102.035 Y89.304 E8.59656 F378.000
G1 X102.548 Y89.647 E8.61770
G1 X102.894 Y90.156 E8.63883
G1 X103.021 Y90.780 E8.66066
G1 X102.894 Y91.405 E8.68251
G1 X102.549 Y91.918 E8.70371
G1 X102.036 Y92.263 E8.72490
G1 X101.605 Y92.351 E8.73998
G1 X98.396 Y92.351 E8.85001
G1 X97.965 Y92.263 E8.86508
G1 X97.455 Y91.916 E8.88622
G1 X97.113 Y91.404 E8.90734
G1 X96.988 Y90.780 E8.92914
G1 X97.102 Y90.216 E8.94886
G1 F1800.000 E7.94886
G92 E0
G1 X101.937 Y89.080 F7800.000
G1 X103.994 Y76.250 F7800.000
G1 E1.00000 F1800.000
G1 X103.449 Y77.057 E1.03340 F540.000
G1 X102.414 Y77.756 E1.07622
G1 X97.585 Y77.756 E1.24178
G1 X96.551 Y77.052 E1.28467
G1 X95.936 Y76.131 E1.32262
G1 X95.714 Y75.019 E1.36150
G1 X95.896 Y74.114 E1.39317
G1 X93.065 Y74.114 E1.49022
G1 X93.065 Y65.261 E1.79373
G1 X106.927 Y65.261 E2.26898
G1 X106.927 Y74.114 E2.57249
G1 X104.112 Y74.114 E2.66899
G1 X104.296 Y75.019 E2.70067
G1 X104.181 Y75.589 E2.72058
G1 X108.402 Y75.589 E2.86529
G1 X108.402 Y66.359 E3.18172
G1 X122.453 Y80.411 E3.86302
G1 X122.453 Y90.033 E4.19291
G1 X117.660 Y90.033 E4.35723
G1 X104.036 Y76.292 E5.02064
G1 X103.033 Y73.489 F7800.000
G1 X103.482 Y74.148 E5.04798 F540.000
G1 X103.658 Y75.020 E5.07846
G1 X103.482 Y75.891 E5.10894
G1 X102.999 Y76.607 E5.13856
G1 X102.223 Y77.131 E5.17067
G1 X97.777 Y77.131 E5.32307
G1 X97.003 Y76.604 E5.35519
G1 X96.525 Y75.887 E5.38473
G1 X96.351 Y75.020 E5.41507
G1 X96.525 Y74.152 E5.44540
G1 X96.971 Y73.489 E5.47280
G1 X93.689 Y73.489 E5.58530
G1 X93.689 Y65.886 E5.84596
G1 X106.302 Y65.886 E6.27837
G1 X106.302 Y73.489 E6.53903
G1 X103.093 Y73.489 E6.64904
G1 X105.677 Y72.864 F7800.000
G1 X94.314 Y72.864 E7.03860 F378.000
G1 X94.314 Y66.511 E7.25641
G1 X105.677 Y66.511 E7.64596
G1 X105.677 Y72.804 E7.86172
G1 X105.331 Y72.664 F7800.000
G1 X102.859 Y74.345 F7800.000
G1 X102.894 Y74.396 E7.86385 F378.000
G1 X103.021 Y75.020 E7.88567
G1 X102.894 Y75.645 E7.90754
G1 X102.549 Y76.157 E7.92872
G1 X102.031 Y76.506 E7.95012
G1 X97.970 Y76.506 E8.08937
G1 X97.455 Y76.156 E8.11072
G1 X97.113 Y75.644 E8.13184
G1 X96.988 Y75.020 E8.15365
G1 X97.113 Y74.397 E8.17541
G1 X97.456 Y73.887 E8.19648
G1 X97.966 Y73.544 E8.21755
G1 X98.554 Y73.427 E8.23811
G1 X101.446 Y73.427 E8.33726
G1 X101.825 Y73.502 E8.35050
G1 X102.035 Y73.544 E8.35784 F378.000
G1 X102.547 Y73.886 E8.37897
G1 X102.825 Y74.295 E8.39592
G1 X101.776 Y73.294 F7800.000
G1 X109.027 Y76.214 F7800.000
G1 X109.027 Y67.868 E8.68205 F540.000
G1 X121.829 Y80.670 E9.30276
G1 X121.829 Y89.408 E9.60235
G1 X117.921 Y89.408 E9.73632
G1 X104.838 Y76.214 E10.37335
G1 X108.967 Y76.214 E10.51489
G1 X109.651 Y76.839 F7800.000
G1 X109.651 Y69.376 E10.77072 F378.000
G1 X121.204 Y80.929 E11.33083
G1 X121.204 Y88.783 E11.60013
G1 X118.181 Y88.783 E11.70375
G1 X106.338 Y76.839 E12.28044
G1 X109.591 Y76.839 E12.39199
G1 X109.451 Y76.492 F7800.000
G1 F1800.000 E11.39199
G92 E0
G1 X109.244 Y101.068 F7800.000
G1 E1.00000 F1800.000
G1 X127.445 Y119.269 E1.88249 F540.000
G1 X127.445 Y133.689 E2.37687
G1 X109.244 Y115.488 E3.25936
G1 X109.244 Y101.128 E3.75168
G1 X109.869 Y102.577 F7800.000
G1 X126.820 Y119.528 E4.57358 F540.000
G1 X126.820 Y132.181 E5.00736
G1 X109.869 Y115.229 E5.82926
G1 X109.869 Y102.637 E6.26099
G1 X110.494 Y104.085 F7800.000
G1 X126.195 Y119.787 E7.02229 F378.000
G1 X126.195 Y130.672 E7.39548
G1 X110.494 Y114.970 E8.15678
G1 X110.494 Y104.145 E8.52791
G1 X110.694 Y103.739 F7800.000
G1 X124.536 Y93.029 F7800.000
G1 X124.190 Y92.516 E8.54910 F378.000
G1 X124.064 Y91.892 E8.57095
G1 X124.190 Y91.267 E8.59281
G1 X124.536 Y90.755 E8.61400
G1 X125.049 Y90.409 E8.63520
G1 X125.674 Y90.282 E8.65707
G1 X126.027 Y90.354 E8.66943
G1 X126.298 Y90.409 E8.67889 F378.000
G1 X126.808 Y90.756 E8.70003
G1 X127.150 Y91.268 E8.72115
G1 X127.274 Y91.892 E8.74296
G1 X127.150 Y92.515 E8.76475
G1 X126.794 Y93.037 E8.78638
G1 X126.298 Y93.374 E8.80698
G1 X125.674 Y93.501 E8.82880
G1 X125.049 Y93.375 E8.85067
G1 X124.586 Y93.062 E8.86981
G1 F1800.000 E7.86981
G92 E0
G1 X126.092 Y90.086 F7800.000
G1 X91.480 Y98.215 F7800.000
G1 E1.00000 F1800.000
G1 X87.992 Y95.137 E1.15947 F540.000
G1 X112.008 Y95.137 E1.98285
G1 X108.645 Y98.105 E2.13663
G1 X108.239 Y98.595 E2.15843
G1 X107.954 Y99.136 E2.17941
G1 X107.769 Y99.740 E2.20109
G1 X107.703 Y100.429 E2.22480
G1 X107.703 Y128.318 E3.18096
G1 X92.293 Y128.318 E3.70928
G1 X92.293 Y106.634 E4.45271
G1 X91.480 Y106.796 E4.48111
G1 X90.367 Y106.573 E4.52002
G1 X89.447 Y105.955 E4.55805
G1 X88.828 Y105.034 E4.59608
G1 X88.642 Y104.101 E4.62870
G1 X88.642 Y100.920 E4.73775
G1 X88.827 Y99.988 E4.77033
G1 X89.442 Y99.067 E4.80830
G1 X90.361 Y98.441 E4.84642
G1 X91.421 Y98.226 E4.88350
G1 X92.736 Y99.106 F7800.000
G1 X92.283 Y98.246 E4.91682 F540.000
G1 X91.806 Y97.669 E4.94252
G1 X89.645 Y95.762 E5.04132
G1 X110.355 Y95.762 E5.75137
G1 X108.195 Y97.669 E5.85016
G1 X107.717 Y98.246 E5.87586
G1 X107.374 Y98.896 E5.90106
G1 X107.152 Y99.618 E5.92694
G1 X107.078 Y100.399 E5.95384
G1 X107.078 Y127.693 E6.88960
G1 X92.918 Y127.693 E7.37507
G1 X92.918 Y105.606 E8.13233
G1 X92.348 Y105.986 E8.15581
G1 X91.480 Y106.159 E8.18614
G1 X90.612 Y105.985 E8.21648
G1 X89.897 Y105.504 E8.24603
G1 X89.416 Y104.789 E8.27558
G1 X89.266 Y104.039 E8.30180
G1 X89.266 Y100.982 E8.40662
G1 X89.416 Y100.232 E8.43283
G1 X89.894 Y99.515 E8.46238
G1 X90.609 Y99.029 E8.49200
G1 X91.480 Y98.852 E8.52250
G1 X92.677 Y99.094 E8.56437
G1 X93.092 Y101.111 F7800.000
G1 X93.542 Y101.066 E8.57988 F378.000
G1 X93.542 Y100.356 E8.60423
G1 X93.459 Y99.482 E8.63432
G1 X93.206 Y98.657 E8.66392
G1 X92.806 Y97.898 E8.69334
G1 X92.256 Y97.232 E8.72294
G1 X91.297 Y96.387 E8.76675
G1 X108.703 Y96.387 E9.36347
G1 X107.744 Y97.232 E9.40729
G1 X107.194 Y97.898 E9.43688
G1 X106.794 Y98.657 E9.46631
G1 X106.536 Y99.495 E9.49638
G1 X106.453 Y100.369 E9.52648
G1 X106.453 Y127.068 E10.44183
G1 X93.542 Y127.068 E10.88446
G1 X93.542 Y103.954 E11.67692
G1 X93.092 Y103.909 E11.69242
G1 X92.963 Y104.545 E11.71469
G1 X92.617 Y105.055 E11.73583
G1 X92.104 Y105.397 E11.75695
G1 X91.480 Y105.522 E11.77875
G1 X90.858 Y105.397 E11.80053
G1 X90.348 Y105.054 E11.82160
G1 X90.005 Y104.544 E11.84267
G1 X89.891 Y103.977 E11.86249
G1 X89.891 Y101.043 E11.96308
G1 X90.005 Y100.476 E11.98293
G1 X90.346 Y99.963 E12.00405
G1 X90.856 Y99.616 E12.02519
G1 X91.480 Y99.490 E12.04703
G1 X92.105 Y99.616 E12.06888
G1 X92.618 Y99.962 E12.09008
G1 X92.963 Y100.474 E12.11126
G1 X93.080 Y101.053 E12.13149
G1 X93.409 Y100.867 F7800.000
G1 X90.747 Y129.886 F7800.000
G1 X104.195 Y129.886 E12.59251 F540.000
G1 X127.445 Y153.136 E13.71981
G1 X127.445 Y163.067 E14.06028
G1 X122.956 Y163.067 E14.21419
G1 X109.244 Y149.355 E14.87903
G1 X109.244 Y148.065 E14.92324
G1 X107.954 Y148.065 E14.96745
G1 X89.774 Y129.886 E15.84890
G1 X72.546 Y112.657 E16.68422
G1 X72.546 Y98.237 E17.17860
G1 X90.747 Y116.438 E18.06111
G1 X90.747 Y129.826 E18.52007
G1 X90.123 Y129.350 F7800.000
G1 X73.171 Y112.398 E19.34198 F540.000
G1 X73.171 Y99.745 E19.77577
G1 X90.123 Y116.697 E20.59768
G1 X90.123 Y129.290 E21.02940
G1 X89.498 Y127.841 F7800.000
G1 X73.796 Y112.139 E21.79071 F378.000
G1 X73.796 Y101.254 E22.16390
