; generated by Slic3r 1.2.0 on 2014-11-18 at 22:23:17

; external perimeters extrusion width = 0.40mm
; perimeters extrusion width = 0.67mm
; infill extrusion width = 0.67mm
; solid infill extrusion width = 0.67mm
; top infill extrusion width = 0.67mm

G21 ; set units to millimeters
M190 S70 ; wait for bed temperature to be reached
M106 ; fan on
M109 S185 ; heat extruder
M116 ; wait for all temperatures 

G1 Z10 F5000 ; lift nozzle just to clear obstacles
G28 X0 Y0 F5000; home X and Y
G28 Z0; home Z to slightly below bed height
G1 Z1.20 F5000; raise to proper z0 height
G92 Z0; set Z offset

G1 Z20 F5000 ; lift nozzle for purge

; purge the nozzle
G91
G1 E10 F150
G90

G1 X10 Y10 F5000 ; clear the blob
G90 ; use absolute coordinates
G92 E0
M82 ; use absolute distances for extrusion
M106 S255
G1 F1800.000 E-1.00000
G92 E0
G1 Z0.350 F7800.000
G1 X55.162 Y17.196 F7800.000
G1 E1.00000 F1800.000
G1 X55.662 Y15.996 E1.04457 F1080.000
G1 X56.429 Y14.567 E1.10016
G1 X57.138 Y13.506 E1.14392
G1 X58.170 Y12.245 E1.19979
G1 X59.107 Y11.310 E1.24516
G1 X60.359 Y10.287 E1.30060
G1 X61.416 Y9.581 E1.34417
G1 X62.845 Y8.813 E1.39978
G1 X64.046 Y8.313 E1.44440
G1 X65.607 Y7.837 E1.50035
G1 X66.891 Y7.581 E1.54523
G1 X68.411 Y7.431 E1.59759
G1 X69.154 Y7.390 E1.62311
G1 X131.495 Y7.422 E3.76041
G1 X133.109 Y7.581 E3.81602 F1080.000
G1 X134.393 Y7.837 E3.86090
G1 X135.954 Y8.313 E3.91685
G1 X137.155 Y8.813 E3.96147
G1 X138.584 Y9.581 E4.01708
G1 X139.624 Y10.272 E4.05988
G1 X140.885 Y11.295 E4.11555
G1 X141.856 Y12.266 E4.16262
G1 X142.879 Y13.528 E4.21830
G1 X143.571 Y14.567 E4.26113
G1 X144.338 Y15.996 E4.31673
G1 X144.838 Y17.196 E4.36129
G1 X145.314 Y18.757 E4.41724
G1 X145.571 Y20.043 E4.46220
G1 X145.720 Y21.563 E4.51457
G1 X145.761 Y22.305 E4.54004
G1 X145.754 Y53.737 E5.61766
G1 X140.742 Y163.405 E9.38145
G1 X140.531 Y164.589 E9.42267
G1 X140.065 Y166.311 E9.48383
G1 X139.618 Y167.442 E9.52551
G1 X138.871 Y168.949 E9.58319
G1 X138.226 Y169.955 E9.62416
G1 X137.174 Y171.330 E9.68353
G1 X136.305 Y172.234 E9.72649
G1 X134.987 Y173.379 E9.78637
G1 X134.028 Y174.043 E9.82635
G1 X132.522 Y174.915 E9.88601
G1 X131.446 Y175.389 E9.92633
G1 X89.715 Y191.532 E11.46035
G1 X88.071 Y192.091 E11.51987
G1 X86.927 Y192.344 E11.56003
G1 X85.217 Y192.578 E11.61921
G1 X84.156 Y192.610 E11.65561
G1 X73.930 Y192.606 E12.00620
G1 X72.182 Y192.484 E12.06628
G1 X71.032 Y192.275 E12.10633
G1 X69.355 Y191.825 E12.16587
G1 X68.182 Y191.363 E12.20910
G1 X66.671 Y190.613 E12.26692
G1 X65.685 Y189.983 E12.30704
G1 X64.304 Y188.933 E12.36652
G1 X63.395 Y188.065 E12.40961
G1 X62.246 Y186.752 E12.46940
G1 X61.570 Y185.780 E12.51001
G1 X60.698 Y184.274 E12.56967
G1 X60.212 Y183.167 E12.61114
G1 X59.652 Y181.520 E12.67078
G1 X59.393 Y180.337 E12.71230
G1 X59.172 Y178.699 E12.76897
G1 X54.239 Y53.438 E17.06674
G1 X54.271 Y21.657 E18.15630
G1 X54.429 Y20.043 E18.21191
G1 X54.686 Y18.757 E18.25687
G1 X55.145 Y17.254 E18.31077
G1 F1800.000 E17.31077
G92 E0
G1 X109.244 Y101.068 F7800.000
G1 E1.00000 F1800.000
G1 X127.445 Y119.269 E1.88249 F540.000
G1 X127.445 Y133.689 E2.37687
G1 X109.244 Y115.488 E3.25936
G1 X109.244 Y101.128 E3.75168
G1 X109.869 Y102.577 F7800.000
G1 X126.820 Y119.528 E4.57358 F540.000
G1 X126.820 Y132.181 E5.00736
G1 X109.869 Y115.229 E5.82926
G1 X109.869 Y102.637 E6.26099
G1 X110.494 Y104.085 F7800.000
G1 X126.195 Y119.787 E7.02229 F378.000
G1 X126.195 Y130.672 E7.39548
G1 X110.494 Y114.970 E8.15678
G1 X110.494 Y104.145 E8.52791
G1 X110.694 Y103.739 F7800.000
G1 F1800.000 E7.52791
G92 E0
G1 X132.446 Y37.090 F7800.000
G1 E1.00000 F1800.000
G1 X116.083 Y20.727 E1.79336 F540.000
G1 X132.446 Y20.727 E2.35433
G1 X132.446 Y37.030 E2.91327
G1 X131.821 Y35.582 F7800.000
G1 X117.592 Y21.352 E3.60318 F540.000
G1 X131.821 Y21.352 E4.09102
G1 X131.821 Y35.522 E4.57681
G1 X131.196 Y34.073 F7800.000
G1 X119.100 Y21.977 E5.16328 F378.000
G1 X131.196 Y21.977 E5.57797
G1 X131.196 Y34.013 E5.99062
G1 X130.996 Y34.420 F7800.000
G1 X127.445 Y55.038 F7800.000
G1 X127.445 Y60.038 E6.16205 F540.000
G1 X121.527 Y60.038 E6.36495
G1 X113.402 Y51.913 E6.75889
G1 X113.402 Y37.493 E7.25327
G1 X130.947 Y55.038 E8.10392
G1 X127.505 Y55.038 E8.22192
G1 X126.820 Y54.413 F7800.000
G1 X126.820 Y59.413 E8.39336 F540.000
G1 X121.786 Y59.413 E8.56595
G1 X114.027 Y51.654 E8.94215
G1 X114.027 Y39.002 E9.37593
G1 X129.438 Y54.413 E10.12314
G1 X126.880 Y54.413 E10.21084
G1 X126.195 Y53.788 F7800.000
G1 X126.195 Y58.788 E10.38228 F378.000
G1 X122.045 Y58.788 E10.52458
G1 X114.652 Y51.395 E10.88302
G1 X114.652 Y40.510 E11.25621
G1 X127.930 Y53.788 E11.89998
G1 X126.255 Y53.788 E11.95738
G1 X126.395 Y54.134 F7800.000
G1 F1800.000 E10.95738
G92 E0
G1 X112.073 Y36.164 F7800.000
G1 E1.00000 F1800.000
G1 X97.653 Y36.164 E1.49438 F540.000
G1 X82.216 Y20.727 E2.24285
G1 X96.636 Y20.727 E2.73724
G1 X112.031 Y36.122 E3.48364
G1 X110.565 Y35.539 F7800.000
G1 X97.912 Y35.539 E3.91743 F540.000
G1 X83.725 Y21.352 E4.60530
G1 X96.378 Y21.352 E5.03909
G1 X110.522 Y35.497 E5.72490
G1 X109.056 Y34.914 F7800.000
G1 X98.171 Y34.914 E6.09809 F378.000
G1 X85.233 Y21.977 E6.72536
G1 X96.119 Y21.977 E7.09856
G1 X109.014 Y34.872 E7.72377
G1 X109.160 Y35.301 F7800.000
G1 F1800.000 E6.72377
G92 E0
G1 X104.133 Y51.493 F7800.000
G1 E1.00000 F1800.000
G1 X104.293 Y52.282 E1.02761 F540.000
G1 X104.066 Y53.400 E1.06673
G1 X103.446 Y54.320 E1.10477
G1 X102.526 Y54.941 E1.14281
G1 X101.569 Y55.135 E1.17629
G1 X98.425 Y55.135 E1.28408
G1 X97.490 Y54.944 E1.31678
G1 X97.314 Y55.272 E1.32952
G1 X108.211 Y66.168 E1.85783
G1 X93.790 Y66.168 E2.35222
G1 X67.554 Y39.932 E3.62428
G1 X67.554 Y25.512 E4.11866
G1 X86.598 Y44.555 E5.04200
G1 X86.598 Y52.967 E5.33039
G1 X95.010 Y52.967 E5.61878
G1 X95.479 Y53.437 E5.64155
G1 X95.869 Y51.493 E5.70953
G1 X88.073 Y51.493 E5.97683
G1 X88.073 Y37.630 E6.45208
G1 X111.927 Y37.630 E7.26992
G1 X111.927 Y51.493 E7.74517
G1 X104.193 Y51.493 E8.01035
G1 X103.109 Y50.868 F7800.000
G1 X103.478 Y51.411 E8.03286 F540.000
G1 X103.656 Y52.282 E8.06335
G1 X103.479 Y53.154 E8.09384
G1 X102.996 Y53.870 E8.12345
G1 X102.280 Y54.353 E8.15306
G1 X101.506 Y54.510 E8.18012
G1 X98.488 Y54.510 E8.28360
G1 X97.714 Y54.352 E8.31066
G1 X97.000 Y53.867 E8.34027
G1 X96.522 Y53.150 E8.36982
G1 X96.487 Y52.973 E8.37600
G1 X96.210 Y52.973 E8.38549
G1 X96.522 Y51.415 E8.43999
G1 X96.890 Y50.868 E8.46258
G1 X88.698 Y50.868 E8.74344
G1 X88.698 Y38.255 E9.17585
G1 X111.302 Y38.255 E9.95084
G1 X111.302 Y50.868 E10.38325
G1 X103.169 Y50.868 E10.66209
G1 X101.467 Y50.694 F7800.000
G1 X102.032 Y50.806 E10.68185 F378.000
G1 X102.544 Y51.149 E10.70298
G1 X102.891 Y51.658 E10.72410
G1 X103.018 Y52.282 E10.74593
G1 X102.891 Y52.907 E10.76780
G1 X102.545 Y53.420 E10.78899
G1 X102.033 Y53.765 E10.81017
G1 X101.443 Y53.885 E10.83080
G1 X98.551 Y53.885 E10.92998
G1 X97.962 Y53.765 E10.95058
G1 X97.452 Y53.419 E10.97171
G1 X97.110 Y52.906 E10.99283
G1 X96.999 Y52.348 E11.01233
G1 X96.972 Y52.348 E11.01324
G1 X97.111 Y51.660 E11.03731
G1 X97.453 Y51.150 E11.05838
G1 X97.963 Y50.807 E11.07946
G1 X98.528 Y50.694 E11.09921
G1 X98.484 Y50.243 E11.11473
G1 X89.322 Y50.243 E11.42881
G1 X89.322 Y38.880 E11.81837
G1 X110.678 Y38.880 E12.55051
G1 X110.678 Y50.243 E12.94007
G1 X101.511 Y50.243 E13.25432
G1 X101.473 Y50.634 E13.26780
G1 X101.841 Y50.553 F7800.000
G1 F1800.000 E12.26780
G92 E0
G1 X85.973 Y53.592 F7800.000
G1 E1.00000 F1800.000
G1 X94.751 Y53.592 E1.30094 F540.000
G1 X106.702 Y65.543 E1.88039
G1 X94.049 Y65.543 E2.31418
G1 X68.179 Y39.673 E3.56850
G1 X68.179 Y27.020 E4.00228
G1 X85.973 Y44.814 E4.86502
G1 X85.973 Y53.532 E5.16390
G1 X85.348 Y54.217 F7800.000
G1 X94.492 Y54.217 E5.47739 F378.000
G1 X105.193 Y64.918 E5.99625
G1 X94.308 Y64.918 E6.36945
G1 X68.804 Y39.414 E7.60601
G1 X68.804 Y28.529 E7.97920
G1 X85.348 Y45.073 E8.78134
G1 X85.348 Y54.157 E9.09277
G1 X85.695 Y54.017 F7800.000
G1 F1800.000 E8.09277
G92 E0
G1 X96.742 Y88.566 F7800.000
G1 E1.00000 F1800.000
G1 X97.473 Y88.075 E1.03020 F540.000
G1 X98.428 Y87.884 E1.06357
G1 X101.566 Y87.884 E1.17119
G1 X102.520 Y88.074 E1.20452
G1 X103.441 Y88.689 E1.24250
G1 X104.066 Y89.608 E1.28057
G1 X104.293 Y90.727 E1.31972
G1 X104.066 Y91.844 E1.35882
G1 X103.446 Y92.764 E1.39687
G1 X102.526 Y93.385 E1.43491
G1 X101.569 Y93.579 E1.46840
G1 X98.425 Y93.579 E1.57618
G1 X97.467 Y93.384 E1.60971
G1 X96.548 Y92.759 E1.64781
G1 X95.933 Y91.838 E1.68578
G1 X95.711 Y90.727 E1.72464
G1 X95.850 Y90.033 E1.74888
G1 X83.789 Y90.033 E2.16240
G1 X77.555 Y83.800 E2.46462
G1 X77.555 Y69.379 E2.95901
G1 X96.700 Y88.524 E3.88723
G1 X96.700 Y89.408 F7800.000
G1 X84.047 Y89.408 E4.32102 F540.000
G1 X78.180 Y83.541 E4.60550
G1 X78.180 Y70.888 E5.03929
G1 X96.658 Y89.366 E5.93518
G1 X95.192 Y88.783 F7800.000
G1 X84.306 Y88.783 E6.30838 F378.000
G1 X78.805 Y83.282 E6.57511
G1 X78.805 Y72.397 E6.94830
G1 X95.149 Y88.741 E7.74075
G1 X95.295 Y89.170 F7800.000
G1 X96.522 Y89.859 F7800.000
G1 X97.003 Y89.144 E7.77028 F540.000
G1 X97.718 Y88.663 E7.79984
G1 X98.489 Y88.509 E7.82681
G1 X101.505 Y88.509 E7.93018 F540.000
G1 X102.276 Y88.662 E7.95714
G1 X102.993 Y89.141 E7.98670
G1 X103.478 Y89.855 E8.01630
G1 X103.656 Y90.727 E8.04679
G1 X103.479 Y91.598 E8.07727
G1 X102.996 Y92.314 E8.10689
G1 X102.280 Y92.798 E8.13650
G1 X101.506 Y92.954 E8.16356
G1 X98.488 Y92.954 E8.26704
G1 X97.714 Y92.797 E8.29410
G1 X97.000 Y92.311 E8.32372
G1 X96.522 Y91.594 E8.35327
G1 X96.348 Y90.727 E8.38360
G1 X96.511 Y89.918 E8.41188
G1 X97.111 Y90.104 F7800.000
G1 X97.453 Y89.594 E8.43294 F378.000
G1 X97.963 Y89.251 E8.45402
G1 X98.551 Y89.133 E8.47458
G1 X101.482 Y89.141 E8.57506
G1 X102.032 Y89.251 E8.59428 F378.000
G1 X102.544 Y89.593 E8.61541
G1 X102.891 Y90.103 E8.63654
G1 X103.018 Y90.727 E8.65837
G1 X102.891 Y91.352 E8.68023
G1 X102.545 Y91.864 E8.70142
G1 X102.033 Y92.210 E8.72260
G1 X101.443 Y92.329 E8.74324
G1 X98.551 Y92.329 E8.84241
G1 X97.962 Y92.210 E8.86301
G1 X97.452 Y91.863 E8.88414
G1 X97.110 Y91.350 E8.90527
G1 X96.986 Y90.727 E8.92707
G1 X97.099 Y90.163 E8.94678
G1 F1800.000 E7.94678
G92 E0
G1 X101.688 Y88.799 F7800.000
G1 X104.143 Y76.487 F7800.000
G1 E1.00000 F1800.000
G1 X104.293 Y77.224 E1.02579 F540.000
G1 X104.066 Y78.342 E1.06489
G1 X103.446 Y79.262 E1.10293
G1 X102.526 Y79.883 E1.14098
G1 X101.569 Y80.077 E1.17447
G1 X98.425 Y80.077 E1.28226
G1 X97.467 Y79.882 E1.31578
G1 X96.548 Y79.257 E1.35388
G1 X95.933 Y78.335 E1.39184
G1 X95.711 Y77.224 E1.43070
G1 X95.859 Y76.487 E1.45648
G1 X93.065 Y76.487 E1.55228
G1 X93.065 Y67.634 E1.85579
G1 X106.927 Y67.634 E2.33104
G1 X106.927 Y76.487 E2.63455
G1 X104.203 Y76.487 E2.72792
G1 X103.145 Y75.862 F7800.000
G1 X103.478 Y76.353 E2.74827 F540.000
G1 X103.656 Y77.224 E2.77876
G1 X103.479 Y78.095 E2.80924
G1 X102.996 Y78.811 E2.83885
G1 X102.280 Y79.295 E2.86847
G1 X101.506 Y79.452 E2.89553
G1 X98.488 Y79.452 E2.99901
G1 X97.714 Y79.294 E3.02607
G1 X97.000 Y78.809 E3.05569
G1 X96.522 Y78.092 E3.08524
G1 X96.348 Y77.224 E3.11556
G1 X96.522 Y76.356 E3.14590
G1 X96.855 Y75.862 E3.16634
G1 X93.689 Y75.862 E3.27486
G1 X93.689 Y68.259 E3.53552
G1 X106.302 Y68.259 E3.96792
G1 X106.302 Y75.862 E4.22858
G1 X103.205 Y75.862 E4.33477
G1 X101.728 Y75.688 F7800.000
G1 X102.032 Y75.748 E4.34538 F378.000
G1 X102.544 Y76.091 E4.36651
G1 X102.891 Y76.600 E4.38764
G1 X103.018 Y77.224 E4.40947
G1 X102.891 Y77.849 E4.43133
G1 X102.545 Y78.361 E4.45252
G1 X102.033 Y78.707 E4.47370
G1 X101.443 Y78.827 E4.49434
G1 X98.551 Y78.827 E4.59351
G1 X97.962 Y78.707 E4.61412
G1 X97.452 Y78.360 E4.63525
G1 X97.110 Y77.848 E4.65637
G1 X96.986 Y77.224 E4.67817
G1 X97.111 Y76.602 E4.69995
G1 X97.453 Y76.092 E4.72101
G1 X97.963 Y75.749 E4.74209
G1 X98.268 Y75.688 E4.75273
G1 X98.223 Y75.237 E4.76826
G1 X94.314 Y75.237 E4.90226
G1 X94.314 Y68.884 E5.12008
G1 X105.677 Y68.884 E5.50963
G1 X105.677 Y75.237 E5.72745
G1 X101.773 Y75.237 E5.86130
G1 X101.734 Y75.628 E5.87477
G1 X102.018 Y75.579 F7800.000
G1 X108.402 Y77.962 F7800.000
G1 X108.402 Y66.359 E6.27256 F540.000
G1 X122.453 Y80.411 E6.95386
G1 X122.453 Y90.033 E7.28375
G1 X117.656 Y90.033 E7.44824
G1 X105.584 Y77.962 E8.03352
G1 X108.342 Y77.962 E8.12806
G1 X109.027 Y78.587 F7800.000
G1 X109.027 Y67.868 E8.49555 F540.000
G1 X121.829 Y80.670 E9.11626
G1 X121.829 Y89.408 E9.41585
G1 X117.914 Y89.408 E9.55004
G1 X107.093 Y78.587 E10.07473
G1 X108.967 Y78.587 E10.13898
G1 X109.651 Y79.212 F7800.000
G1 X109.651 Y69.376 E10.47616 F378.000
G1 X121.204 Y80.929 E11.03628
G1 X121.204 Y88.783 E11.30557
G1 X118.173 Y88.783 E11.40947
G1 X108.601 Y79.212 E11.87356
G1 X109.591 Y79.212 E11.90750
G1 X109.451 Y78.865 F7800.000
G1 F1800.000 E10.90750
G92 E0
G1 X124.530 Y90.704 F7800.000
G1 E1.00000 F1800.000
G1 X125.042 Y90.359 E1.02116 F378.000
G1 X125.666 Y90.233 E1.04299
G1 X126.080 Y90.316 E1.05747
G1 X126.291 Y90.359 E1.06483 F378.000
G1 X126.802 Y90.704 E1.08599
G1 X127.147 Y91.216 E1.10715
G1 X127.273 Y91.840 E1.12898
G1 X127.147 Y92.464 E1.15082
G1 X126.802 Y92.976 E1.17198
G1 X126.291 Y93.321 E1.19313
G1 X125.666 Y93.447 E1.21497
G1 X125.042 Y93.321 E1.23680
G1 X124.530 Y92.976 E1.25796
G1 X124.185 Y92.464 E1.27912
G1 X124.059 Y91.840 E1.30096
G1 X124.185 Y91.216 E1.32279
G1 X124.497 Y90.753 E1.34189
G1 X126.185 Y90.129 F7800.000
G1 F1800.000 E0.34189
G92 E0
G1 X91.425 Y98.167 F7800.000
G1 E1.00000 F1800.000
G1 X87.992 Y95.137 E1.15699 F540.000
G1 X112.008 Y95.137 E1.98037
G1 X108.645 Y98.105 E2.13415
G1 X108.239 Y98.595 E2.15595
G1 X107.954 Y99.136 E2.17692
G1 X107.769 Y99.740 E2.19861
G1 X107.703 Y100.429 E2.22232
G1 X107.703 Y128.318 E3.17848
G1 X92.293 Y128.318 E3.70680
G1 X92.293 Y106.576 E4.45223
G1 X91.475 Y106.738 E4.48079
G1 X90.363 Y106.516 E4.51969
G1 X89.443 Y105.897 E4.55771
G1 X88.824 Y104.977 E4.59573
G1 X88.633 Y104.022 E4.62911
G1 X88.633 Y100.884 E4.73671
G1 X88.823 Y99.930 E4.77005
G1 X89.438 Y99.009 E4.80803
G1 X90.357 Y98.384 E4.84611
G1 X91.367 Y98.179 E4.88144
G1 X92.703 Y99.043 F7800.000
G1 X92.283 Y98.246 E4.91232 F540.000
G1 X91.806 Y97.669 E4.93802
G1 X89.645 Y95.762 E5.03681
G1 X110.355 Y95.762 E5.74686
G1 X108.195 Y97.669 E5.84566
G1 X107.717 Y98.246 E5.87136
G1 X107.374 Y98.896 E5.89656
G1 X107.152 Y99.618 E5.92244
G1 X107.078 Y100.399 E5.94934
G1 X107.078 Y127.693 E6.88510
G1 X92.918 Y127.693 E7.37057
G1 X92.918 Y105.545 E8.12991
G1 X92.344 Y105.928 E8.15358
G1 X91.476 Y106.101 E8.18392
G1 X90.608 Y105.928 E8.21425
G1 X89.893 Y105.447 E8.24380
G1 X89.412 Y104.731 E8.27335
G1 X89.258 Y103.960 E8.30032
G1 X89.258 Y100.945 E8.40368
G1 X89.411 Y100.174 E8.43065
G1 X89.890 Y99.457 E8.46020
G1 X90.604 Y98.971 E8.48981
G1 X91.476 Y98.794 E8.52029
G1 X92.644 Y99.031 E8.56117
G1 X93.092 Y101.075 F7800.000
G1 X93.542 Y101.030 E8.57667 F378.000
G1 X93.542 Y100.356 E8.59976
G1 X93.459 Y99.482 E8.62986
G1 X93.206 Y98.657 E8.65946
G1 X92.806 Y97.898 E8.68888
G1 X92.256 Y97.232 E8.71848
G1 X91.297 Y96.387 E8.76229
G1 X108.703 Y96.387 E9.35901
G1 X107.744 Y97.232 E9.40282
G1 X107.194 Y97.898 E9.43242
G1 X106.794 Y98.657 E9.46184
G1 X106.536 Y99.495 E9.49192
G1 X106.453 Y100.369 E9.52202
G1 X106.453 Y127.068 E10.43737
G1 X93.542 Y127.068 E10.88000
G1 X93.542 Y103.875 E11.67516
G1 X93.093 Y103.830 E11.69066
G1 X92.959 Y104.488 E11.71368
G1 X92.612 Y104.997 E11.73481
G1 X92.100 Y105.340 E11.75594
G1 X91.476 Y105.464 E11.77775
G1 X90.853 Y105.339 E11.79952
G1 X90.343 Y104.996 E11.82059
G1 X90.000 Y104.486 E11.84166
G1 X89.883 Y103.898 E11.86222
G1 X89.883 Y101.007 E11.96135
G1 X90.000 Y100.418 E11.98195
G1 X90.342 Y99.905 E12.00308
G1 X90.852 Y99.559 E12.02421
G1 X91.476 Y99.432 E12.04604
G1 X92.101 Y99.559 E12.06791
G1 X92.613 Y99.904 E12.08909
G1 X92.959 Y100.416 E12.11027
G1 X93.081 Y101.016 E12.13125
G1 X93.409 Y100.831 F7800.000
G1 X90.747 Y129.886 F7800.000
G1 X104.195 Y129.886 E12.59227 F540.000
G1 X127.445 Y153.136 E13.71957
G1 X127.445 Y163.067 E14.06004
G1 X122.956 Y163.067 E14.21395
G1 X109.244 Y149.355 E14.87879
G1 X109.244 Y148.065 E14.92300
G1 X107.954 Y148.065 E14.96721
G1 X89.774 Y129.886 E15.84866
G1 X72.546 Y112.657 E16.68398
G1 X72.546 Y98.237 E17.17836
G1 X90.747 Y116.438 E18.06087
